(Exported by FreeCAD for MaslowCNC)
(Post Processor: PathScripts.post.maslow_post)
(Output Time:2018-08-15 15:55:31.409865)
(begin preamble)
G90
M3
G21
(begin operation: BodyJob)
(Path: BodyJob)
(Compensated Tool Path. Diameter: 6.35)
(Pocket_Shape)
G0 Z6.0000
G0 X-193.4847 Y32.0643
G0 Z4.0000
G1 X-193.4847 Y32.0643 Z-5.0000 F100.00
G2 X-191.9943 Y28.5887 Z-5.0000 I-21.5952 J-11.3181 F100.00
G3 X-189.8955 Y22.4382 Z-5.0000 I57.5533 J16.2058 F100.00
G3 X-188.5355 Y20.7141 Z-5.0000 I3.2926 J1.1987 F100.00
G3 X-185.1309 Y19.9173 Z-5.0000 I3.1208 J5.6633 F100.00
G1 X-183.5263 Y19.5162 Z-5.0000 F100.00
G3 X-183.5239 Y17.0162 Z-5.0000 I34.1342 J-1.2172 F100.00
G2 X-184.0902 Y13.1742 Z-5.0000 I-6.4447 J-1.0127 F100.00
G2 X-186.7716 Y10.3535 Z-5.0000 I-7.0074 J3.9765 F100.00
G2 X-188.0162 Y9.8924 Z-5.0000 I-1.4545 J2.0156 F100.00
G2 X-188.6673 Y10.0360 Z-5.0000 I-0.0083 J1.5106 F100.00
G2 X-190.3205 Y11.1918 Z-5.0000 I2.3566 J5.1309 F100.00
G1 X-188.1905 Y13.5412 Z-5.0000 F100.00
G1 X-188.0067 Y13.3837 Z-5.0000 F100.00
G3 X-186.9739 Y14.5120 Z-5.0000 I-3.0673 J3.8448 F100.00
G3 X-186.6306 Y16.0360 Z-5.0000 I-2.3827 J1.3374 F100.00
G2 X-186.9739 Y14.5120 Z-5.0000 I-2.7260 J-0.1866 F100.00
G2 X-188.0067 Y13.3837 Z-5.0000 I-4.1001 J2.7166 F100.00
G2 X-188.9582 Y14.3124 Z-5.0000 I5.3728 J6.4562 F100.00
G3 X-188.1905 Y13.5412 Z-5.0000 I9.0967 J8.2873 F100.00
G1 X-190.3205 Y11.1918 Z-5.0000 F100.00
G2 X-191.2905 Y12.1648 Z-5.0000 I10.5079 J11.4454 F100.00
G2 X-194.3615 Y15.6848 Z-5.0000 I165.9259 J147.8631 F100.00
G1 X-194.3615 Y21.4987 Z-5.0000 F100.00
G3 X-195.2938 Y30.6137 Z-5.0000 I-62.3540 J-1.7723 F100.00
G3 X-196.8635 Y35.5675 Z-5.0000 I-18.0411 J-2.9909 F100.00
G2 X-197.3452 Y36.9893 Z-5.0000 I2.3527 J1.5897 F100.00
G2 X-197.0710 Y37.3278 Z-5.0000 I1.2574 J-0.7381 F100.00
G1 X-196.7457 Y36.9994 Z-5.0000 F100.00
G2 X-194.8936 Y34.4197 Z-5.0000 I-14.2747 J-12.2030 F100.00
G2 X-193.4847 Y32.0643 Z-5.0000 I-20.1863 J-13.6734 F100.00
G0 X-193.4847 Y32.0643 Z6.0000
G0 X-191.1915 Y18.7866 Z6.0000
G0 X-191.1915 Y18.7866 Z1.8300
G1 X-191.1915 Y18.7866 Z-5.0000 F100.00
G1 X-191.1915 Y16.8703 Z-5.0000 F100.00
G3 X-188.9582 Y14.3124 Z-5.0000 I122.8051 J104.9729 F100.00
G2 X-191.1915 Y16.8703 Z-5.0000 I120.5718 J107.5308 F100.00
G1 X-191.1915 Y18.7866 Z-5.0000 F100.00
G3 X-186.6894 Y16.8476 Z-5.0000 I5.1398 J5.7379 F100.00
G3 X-186.6306 Y16.0360 Z-5.0000 I33.4614 J2.0154 F100.00
G2 X-186.6894 Y16.8476 Z-5.0000 I33.4026 J2.8270 F100.00
G2 X-191.1915 Y18.7866 Z-5.0000 I0.6377 J7.6769 F100.00
G0 X-191.1915 Y18.7866 Z6.0000
G0 X-191.1915 Y18.7822 Z6.0000
G0 X-191.1915 Y18.7822 Z1.0000
G1 X-191.1915 Y18.7822 Z-5.0000 F100.00
G3 X-186.7027 Y16.8464 Z-5.0000 I5.1979 J5.8806 F100.00
G2 X-186.6415 Y16.2936 Z-5.0000 I-2.8748 J-0.5981 F100.00
G3 X-186.7027 Y16.8464 Z-5.0000 I-2.9360 J-0.0453 F100.00
G2 X-191.1915 Y18.7822 Z-5.0000 I0.7090 J7.8164 F100.00
G1 X-191.1915 Y16.8703 Z-5.0000 F100.00
G3 X-188.8293 Y14.1747 Z-5.0000 I85.6222 J72.6485 F100.00
G1 X-188.3569 Y13.6972 Z-5.0000 F100.00
G1 X-190.5455 Y11.4020 Z-5.0000 F100.00
G1 X-191.1367 Y11.9996 Z-5.0000 F100.00
G2 X-194.3615 Y15.6848 Z-5.0000 I113.8262 J102.8608 F100.00
G1 X-194.3615 Y21.4987 Z-5.0000 F100.00
G3 X-195.2412 Y30.3343 Z-5.0000 I-64.9888 J-2.0083 F100.00
G3 X-196.8047 Y35.4543 Z-5.0000 I-19.3369 J-3.1065 F100.00
G2 X-197.2915 Y36.5112 Z-5.0000 I9.0219 J4.7959 F100.00
G2 X-197.3425 Y37.0026 Z-5.0000 I0.8172 J0.3332 F100.00
G2 X-197.0691 Y37.3258 Z-5.0000 I1.5655 J-1.0473 F100.00
G1 X-196.7926 Y37.0508 Z-5.0000 F100.00
G2 X-194.8965 Y34.4242 Z-5.0000 I-14.1903 J-12.2414 F100.00
G2 X-191.9708 Y28.5150 Z-5.0000 I-19.9992 J-13.5804 F100.00
G3 X-189.9686 Y22.6007 Z-5.0000 I55.9831 J15.6568 F100.00
G3 X-188.5320 Y20.7115 Z-5.0000 I3.5380 J1.1996 F100.00
G3 X-185.1358 Y19.9186 Z-5.0000 I3.1288 J5.7311 F100.00
G1 X-183.5263 Y19.5162 Z-5.0000 F100.00
G3 X-183.5246 Y17.0300 Z-5.0000 I53.6401 J-1.2064 F100.00
G2 X-184.2625 Y12.8666 Z-5.0000 I-6.3228 J-1.0264 F100.00
G2 X-186.5754 Y10.4825 Z-5.0000 I-7.0983 J4.5724 F100.00
G2 X-188.0441 Y9.8911 Z-5.0000 I-1.7637 J2.2604 F100.00
G2 X-188.6499 Y10.0290 Z-5.0000 I0.0082 J1.4360 F100.00
G2 X-190.5455 Y11.4020 Z-5.0000 I2.9312 J6.0418 F100.00
G1 X-188.3569 Y13.6972 Z-5.0000 F100.00
G1 X-188.0107 Y13.3858 Z-5.0000 F100.00
G2 X-188.8293 Y14.1747 Z-5.0000 I6.3568 J7.4156 F100.00
G2 X-191.1915 Y16.8703 Z-5.0000 I83.2601 J75.3442 F100.00
G1 X-191.1915 Y18.7822 Z-5.0000 F100.00
G0 X-191.1915 Y18.7822 Z6.0000
G0 X-186.6415 Y16.2936 Z6.0000
G0 X-186.6415 Y16.2936 Z1.0000
G1 X-186.6415 Y16.2936 Z-5.0000 F100.00
G2 X-186.9775 Y14.5058 Z-5.0000 I-2.9165 J-0.3774 F100.00
G2 X-188.0107 Y13.3858 Z-5.0000 I-4.0176 J2.6699 F100.00
G3 X-186.9775 Y14.5058 Z-5.0000 I-2.9843 J3.7899 F100.00
G3 X-186.6415 Y16.2936 Z-5.0000 I-2.5805 J1.4104 F100.00
G0 Z6.0000
G0 X-161.6732 Y79.7371
G0 Z4.0000
G1 X-161.6732 Y79.7371 Z-5.0000 F100.00
G2 X-160.7291 Y77.7129 Z-5.0000 I-226.0966 J-106.6901 F100.00
G2 X-159.3664 Y73.0344 Z-5.0000 I-14.0746 J-6.6371 F100.00
G2 X-158.9487 Y65.3517 Z-5.0000 I-97.3376 J-9.1443 F100.00
G2 X-159.3545 Y45.9356 Z-5.0000 I-155.4014 J-6.4645 F100.00
G2 X-162.2294 Y29.9218 Z-5.0000 I-84.8120 J6.9610 F100.00
G3 X-163.9243 Y24.3068 Z-5.0000 I111.3435 J-36.6721 F100.00
G3 X-164.3353 Y22.0432 Z-5.0000 I11.8470 J-3.3202 F100.00
G2 X-164.6371 Y20.9202 Z-5.0000 I-11.4510 J2.4754 F100.00
G2 X-167.8552 Y11.9499 Z-5.0000 I-152.9771 J49.8171 F100.00
G3 X-169.6735 Y7.1934 Z-5.0000 I215.9989 J-85.3005 F100.00
G3 X-170.3640 Y4.4465 Z-5.0000 I10.1668 J-4.0159 F100.00
G3 X-169.5377 Y2.2487 Z-5.0000 I2.4110 J-0.3477 F100.00
G3 X-167.9163 Y1.4433 Z-5.0000 I3.1939 J4.3950 F100.00
G3 X-162.5911 Y-0.0767 Z-5.0000 I16.8967 J49.1074 F100.00
G2 X-158.2292 Y-1.3304 Z-5.0000 I-17.8489 J-70.3173 F100.00
G2 X-154.9207 Y-2.7971 Z-5.0000 I-5.3070 J-16.4357 F100.00
G3 X-148.9661 Y-6.4841 Z-5.0000 I56.7284 J84.9656 F100.00
G2 X-144.2858 Y-9.3418 Z-5.0000 I-30.4107 J-55.0686 F100.00
G2 X-138.4265 Y-15.6299 Z-5.0000 I-11.3064 J-16.4093 F100.00
G2 X-138.0324 Y-16.4838 Z-5.0000 I-2.0766 J-1.4762 F100.00
G2 X-138.6287 Y-19.0395 Z-5.0000 I-2.8120 J-0.6914 F100.00
G2 X-141.0017 Y-21.1685 Z-5.0000 I-7.2095 J5.6490 F100.00
G2 X-142.1585 Y-21.5280 Z-5.0000 I-0.9304 J0.9526 F100.00
G2 X-143.9383 Y-20.9096 Z-5.0000 I0.6024 J4.6047 F100.00
G2 X-147.1393 Y-18.3553 Z-5.0000 I6.2016 J11.0544 F100.00
G2 X-149.7137 Y-14.9945 Z-5.0000 I21.3811 J19.0444 F100.00
G3 X-153.0717 Y-11.5309 Z-5.0000 I-12.8541 J-9.1024 F100.00
G3 X-154.8496 Y-10.3463 Z-5.0000 I-75.9490 J-112.0600 F100.00
G2 X-159.2882 Y-7.0496 Z-5.0000 I74.0884 J104.3890 F100.00
G3 X-163.1358 Y-4.0893 Z-5.0000 I-45.4632 J-55.1097 F100.00
G3 X-167.3930 Y-1.5106 Z-5.0000 I-17.3504 J-23.8403 F100.00
G3 X-170.4014 Y-0.5660 Z-5.0000 I-4.3255 J-8.5132 F100.00
G3 X-172.5465 Y-1.1494 Z-5.0000 I-0.4751 J-2.4881 F100.00
G3 X-173.7498 Y-2.3681 Z-5.0000 I5.1275 J-6.2661 F100.00
G3 X-177.4160 Y-7.6080 Z-5.0000 I39.3669 J-31.4469 F100.00
G3 X-180.7323 Y-13.6738 Z-5.0000 I40.4646 J-26.0621 F100.00
G2 X-183.7833 Y-19.2394 Z-5.0000 I-15.3347 J4.7873 F100.00
G3 X-187.6858 Y-24.6022 Z-5.0000 I38.3236 J-31.9898 F100.00
G2 X-189.3461 Y-27.0236 Z-5.0000 I-9.5735 J4.7843 F100.00
G2 X-195.3910 Y-32.3125 Z-5.0000 I-26.9615 J24.7165 F100.00
G2 X-197.9303 Y-33.7289 Z-5.0000 I-6.9793 J9.5276 F100.00
G2 X-199.7676 Y-33.8645 Z-5.0000 I-1.1850 J3.5409 F100.00
G2 X-199.3671 Y-33.1472 Z-5.0000 I3.2757 J-1.3581 F100.00
G2 X-197.4967 Y-30.8824 Z-5.0000 I13.8633 J-9.5448 F100.00
G3 X-194.9270 Y-28.1559 Z-5.0000 I-25.4030 J26.5158 F100.00
G3 X-190.5903 Y-22.0198 Z-5.0000 I-43.8206 J35.5707 F100.00
G3 X-182.6655 Y-8.0785 Z-5.0000 I-192.8051 J118.8224 F100.00
G3 X-175.0328 Y8.3166 Z-5.0000 I-137.7989 J74.1258 F100.00
G1 X-170.4195 Y19.4778 Z-5.0000 F100.00
G3 X-168.3232 Y26.6043 Z-5.0000 I-62.4825 J22.2512 F100.00
G3 X-166.9091 Y33.5258 Z-5.0000 I-699.8041 J146.5839 F100.00
G2 X-165.2955 Y39.1340 Z-5.0000 I36.3230 J-7.4145 F100.00
G3 X-164.7328 Y40.5405 Z-5.0000 I-11.3407 J5.3532 F100.00
G3 X-164.1354 Y44.0138 Z-5.0000 I-16.2939 J4.5906 F100.00
G3 X-163.8927 Y50.8332 Z-5.0000 I-75.7549 J6.1091 F100.00
G3 X-164.5843 Y65.4119 Z-5.0000 I-131.5802 J1.0637 F100.00
G2 X-165.6474 Y71.5148 Z-5.0000 I169.2449 J32.6232 F100.00
G1 X-162.5117 Y71.9814 Z-5.0000 F100.00
G3 X-162.8359 Y74.3063 Z-5.0000 I-93.4221 J-11.8452 F100.00
G2 X-162.3946 Y71.2507 Z-5.0000 I-12.4026 J-3.3509 F100.00
G3 X-162.8359 Y74.3063 Z-5.0000 I-238.4913 J-32.8845 F100.00
G2 X-162.3946 Y71.2507 Z-5.0000 I-12.4026 J-3.3509 F100.00
G1 X-162.5117 Y71.9814 Z-5.0000 F100.00
G1 X-165.6474 Y71.5148 Z-5.0000 F100.00
G3 X-166.0041 Y74.0566 Z-5.0000 I-100.1724 J-12.7627 F100.00
G3 X-167.9572 Y78.2769 Z-5.0000 I-10.8924 J-2.4789 F100.00
G1 X-165.3386 Y80.0635 Z-5.0000 F100.00
G3 X-168.0748 Y83.3877 Z-5.0000 I-23.7458 J-16.7577 F100.00
G2 X-171.4546 Y87.5863 Z-5.0000 I16.3812 J16.6463 F100.00
G2 X-171.2757 Y87.7204 Z-5.0000 I0.7520 J-0.8165 F100.00
G2 X-169.0254 Y85.7795 Z-5.0000 I-4.9726 J-8.0402 F100.00
G2 X-165.3255 Y80.0442 Z-5.0000 I-20.3945 J-17.2178 F100.00
G3 X-165.3386 Y80.0635 Z-5.0000 I-3.0893 J-2.0786 F100.00
G1 X-167.9572 Y78.2769 Z-5.0000 F100.00
G3 X-170.3504 Y81.1805 Z-5.0000 I-20.8096 J-14.7136 F100.00
G2 X-172.9555 Y84.1665 Z-5.0000 I18.6704 J18.9183 F100.00
G2 X-174.7005 Y86.9925 Z-5.0000 I10.0747 J8.1729 F100.00
G2 X-174.6704 Y88.6076 Z-5.0000 I1.6458 J0.7771 F100.00
G2 X-172.9094 Y90.4473 Z-5.0000 I4.3701 J-2.4203 F100.00
G2 X-169.8553 Y90.5614 Z-5.0000 I1.6205 J-2.4440 F100.00
G2 X-166.6591 Y87.8902 Z-5.0000 I-6.1924 J-10.6573 F100.00
G2 X-162.6383 Y81.7587 Z-5.0000 I-22.5282 J-19.1573 F100.00
G2 X-161.6732 Y79.7371 Z-5.0000 I-225.1315 J-108.7117 F100.00
G0 X-161.6732 Y79.7371 Z6.0000
G0 X-173.5264 Y3.6122 Z6.0000
G0 X-173.5264 Y3.6122 Z1.8300
G1 X-173.5264 Y3.6122 Z-5.0000 F100.00
G3 X-173.2113 Y2.1417 Z-5.0000 I5.5784 J0.4263 F100.00
G3 X-174.5080 Y1.3407 Z-5.0000 I2.9952 J-6.2992 F100.00
G1 X-172.5465 Y-1.1494 Z-5.0000 F100.00
G1 X-174.5080 Y1.3407 Z-5.0000 F100.00
G1 X-174.5149 Y1.3353 Z-5.0000 F100.00
G3 X-173.5264 Y3.6122 Z-5.0000 I-55.5861 J25.4866 F100.00
G0 X-173.5264 Y3.6122 Z6.0000
G0 X-152.9847 Y-7.7816 Z6.0000
G0 X-152.9847 Y-7.7816 Z1.8300
G1 X-152.9847 Y-7.7816 Z-5.0000 F100.00
G2 X-151.1943 Y-8.9765 Z-5.0000 I-24.0644 J-37.9971 F100.00
G2 X-147.1352 Y-13.1506 Z-5.0000 I-11.4849 J-15.2292 F100.00
G3 X-151.1943 Y-8.9765 Z-5.0000 I-15.5440 J-11.0551 F100.00
G3 X-152.9847 Y-7.7816 Z-5.0000 I-25.8549 J-36.8021 F100.00
G3 X-150.5382 Y-9.2369 Z-5.0000 I48.4182 J78.6095 F100.00
G2 X-146.1329 Y-11.9185 Z-5.0000 I-28.9838 J-52.5744 F100.00
G3 X-150.5382 Y-9.2369 Z-5.0000 I-33.3891 J-49.8929 F100.00
G2 X-152.9847 Y-7.7816 Z-5.0000 I45.9717 J80.0649 F100.00
G0 X-152.9847 Y-7.7816 Z6.0000
G0 X-147.1352 Y-13.1506 Z6.0000
G0 X-147.1352 Y-13.1506 Z1.8300
G1 X-147.1352 Y-13.1506 Z-5.0000 F100.00
G3 X-144.8161 Y-16.1969 Z-5.0000 I21.7341 J14.1394 F100.00
G3 X-142.2876 Y-18.1874 Z-5.0000 I6.8299 J6.0745 F100.00
G1 X-142.4285 Y-18.1189 Z-5.0000 F100.00
G2 X-144.8161 Y-16.1969 Z-5.0000 I4.6815 J8.2597 F100.00
G2 X-147.1352 Y-13.1506 Z-5.0000 I19.4150 J17.1857 F100.00
G0 X-147.1352 Y-13.1506 Z6.0000
G0 X-146.1329 Y-11.9185 Z6.0000
G0 X-146.1329 Y-11.9185 Z1.8300
G1 X-146.1329 Y-11.9185 Z-5.0000 F100.00
G2 X-141.1956 Y-17.1752 Z-5.0000 I-9.4765 J-13.8474 F100.00
G2 X-142.2876 Y-18.1874 Z-5.0000 I-3.9414 J3.1568 F100.00
G3 X-141.1956 Y-17.1752 Z-5.0000 I-2.8495 J4.1690 F100.00
G3 X-146.1329 Y-11.9185 Z-5.0000 I-14.4137 J-8.5907 F100.00
G0 X-146.1329 Y-11.9185 Z6.0000
G0 X-142.4285 Y-18.1189 Z6.0000
G0 X-142.4285 Y-18.1189 Z1.8300
G1 X-142.4285 Y-18.1189 Z-5.0000 F100.00
G1 X-143.9383 Y-20.9096 Z-5.0000 F100.00
G1 X-142.4285 Y-18.1189 Z-5.0000 F100.00
G0 X-142.4285 Y-18.1189 Z6.0000
G0 X-142.4250 Y-18.1123 Z6.0000
G0 X-142.4250 Y-18.1123 Z1.0000
G1 X-142.4250 Y-18.1123 Z-5.0000 F100.00
G3 X-142.2789 Y-18.1880 Z-5.0000 I3.6500 J6.8685 F100.00
G1 X-140.4435 Y-20.7760 Z-5.0000 F100.00
G1 X-142.2789 Y-18.1880 Z-5.0000 F100.00
G3 X-141.1961 Y-17.1760 Z-5.0000 I-2.7840 J4.0637 F100.00
G3 X-145.9036 Y-12.0849 Z-5.0000 I-14.1771 J-8.3871 F100.00
G3 X-148.6438 Y-10.3268 Z-5.0000 I-15.9976 J-21.9194 F100.00
G2 X-152.9037 Y-7.8345 Z-5.0000 I90.6356 J159.8014 F100.00
G2 X-150.8634 Y-9.2206 Z-5.0000 I-15.7397 J-25.3624 F100.00
G2 X-146.7519 Y-13.6707 Z-5.0000 I-13.1128 J-16.2394 F100.00
G3 X-144.2592 Y-16.7594 Z-5.0000 I14.1051 J8.8332 F100.00
G3 X-142.4250 Y-18.1123 Z-5.0000 I5.4842 J5.5156 F100.00
G0 X-142.4250 Y-18.1123 Z6.0000
G0 X-144.0229 Y-20.8609 Z6.0000
G0 X-144.0229 Y-20.8609 Z1.0000
G1 X-144.0229 Y-20.8609 Z-5.0000 F100.00
G2 X-148.1943 Y-17.1023 Z-5.0000 I6.8723 J11.8211 F100.00
G3 X-150.5373 Y-13.9541 Z-5.0000 I-42.0055 J-28.8160 F100.00
G3 X-153.4278 Y-11.2992 Z-5.0000 I-10.0151 J-8.0030 F100.00
G2 X-161.0870 Y-5.6123 Z-5.0000 I51.0281 J76.7267 F100.00
G3 X-166.5920 Y-1.9138 Z-5.0000 I-24.4453 J-30.4388 F100.00
G3 X-170.3217 Y-0.5758 Z-5.0000 I-5.5692 J-9.6567 F100.00
G3 X-172.1864 Y-0.8982 Z-5.0000 I-0.5333 J-2.4692 F100.00
G3 X-174.1469 Y-2.8559 Z-5.0000 I4.7033 J-6.6703 F100.00
G3 X-177.5878 Y-7.8822 Z-5.0000 I46.3344 J-35.4106 F100.00
G3 X-180.7640 Y-13.7610 Z-5.0000 I38.0091 J-24.3332 F100.00
G2 X-183.7847 Y-19.2412 Z-5.0000 I-15.5087 J4.9758 F100.00
G3 X-187.6990 Y-24.6240 Z-5.0000 I37.7885 J-31.5942 F100.00
G2 X-189.6351 Y-27.3497 Z-5.0000 I-9.8511 J4.9469 F100.00
G2 X-195.1466 Y-32.1418 Z-5.0000 I-27.1356 J25.6437 F100.00
G2 X-198.2485 Y-33.8309 Z-5.0000 I-6.9566 J9.0826 F100.00
G2 X-199.7607 Y-33.8635 Z-5.0000 I-0.8404 J3.8856 F100.00
G2 X-199.1096 Y-32.7766 Z-5.0000 I3.7251 J-1.4928 F100.00
G2 X-196.1232 Y-29.4958 Z-5.0000 I20.9028 J-16.0280 F100.00
G3 X-192.4632 Y-24.8665 Z-5.0000 I-26.8799 J25.0129 F100.00
G3 X-187.2471 Y-16.4259 Z-5.0000 I-96.5496 J65.4968 F100.00
G3 X-176.9950 Y3.5595 Z-5.0000 I-197.3971 J113.8831 F100.00
G1 X-174.1021 Y2.2635 Z-5.0000 F100.00
G2 X-174.5235 Y1.3286 Z-5.0000 I-306.1222 J137.4369 F100.00
G2 X-173.2170 Y2.1408 Z-5.0000 I4.0395 J-5.0414 F100.00
G2 X-173.5215 Y3.6249 Z-5.0000 I5.0691 J1.8133 F100.00
G2 X-174.1021 Y2.2635 Z-5.0000 I-48.9900 J20.0878 F100.00
G1 X-176.9916 Y3.5672 Z-5.0000 F100.00
G3 X-175.0343 Y8.3129 Z-5.0000 I-100.1305 J44.0728 F100.00
G1 X-170.4195 Y19.4778 Z-5.0000 F100.00
G3 X-168.3231 Y26.6050 Z-5.0000 I-61.9565 J22.0963 F100.00
G3 X-166.9094 Y33.5241 Z-5.0000 I-732.0179 J153.1636 F100.00
G2 X-165.2501 Y39.2489 Z-5.0000 I35.3184 J-7.1341 F100.00
G3 X-164.7171 Y40.5909 Z-5.0000 I-9.6840 J4.6230 F100.00
G3 X-164.0319 Y45.3852 Z-5.0000 I-21.2615 J5.4849 F100.00
G3 X-164.5843 Y65.4115 Z-5.0000 I-136.3345 J6.2600 F100.00
G2 X-165.6971 Y71.8493 Z-5.0000 I162.0944 J31.3334 F100.00
G1 X-162.5601 Y72.3068 Z-5.0000 F100.00
G3 X-162.8270 Y74.2793 Z-5.0000 I-1938.6870 J-261.3154 F100.00
G2 X-162.4026 Y71.3004 Z-5.0000 I-12.0825 J-3.2410 F100.00
G3 X-162.8270 Y74.2793 Z-5.0000 I-12.5069 J-0.2620 F100.00
G3 X-162.4026 Y71.3004 Z-5.0000 I197.9588 J26.6816 F100.00
G1 X-162.5601 Y72.3068 Z-5.0000 F100.00
G1 X-165.6971 Y71.8493 Z-5.0000 F100.00
G1 X-165.9183 Y73.4858 Z-5.0000 F100.00
G3 X-166.0798 Y74.4086 Z-5.0000 I-6.9598 J-0.7423 F100.00
G3 X-168.2280 Y78.6552 Z-5.0000 I-11.8345 J-3.3200 F100.00
G3 X-170.0935 Y80.9040 Z-5.0000 I-21.4158 J-15.8677 F100.00
G2 X-173.3670 Y84.7191 Z-5.0000 I22.0537 J22.2347 F100.00
G2 X-174.7821 Y87.2215 Z-5.0000 I7.7507 J6.0343 F100.00
G2 X-174.7817 Y88.3290 Z-5.0000 I1.5958 J0.5532 F100.00
G2 X-173.1262 Y90.3053 Z-5.0000 I4.1340 J-1.7813 F100.00
G2 X-170.0784 Y90.6618 Z-5.0000 I1.8136 J-2.2983 F100.00
G2 X-167.2199 Y88.4911 Z-5.0000 I-4.8570 J-9.3634 F100.00
G2 X-162.9579 Y82.3720 Z-5.0000 I-19.3362 J-18.0116 F100.00
G2 X-160.3105 Y76.7041 Z-5.0000 I-84.5704 J-42.9542 F100.00
G2 X-159.2822 Y72.1635 Z-5.0000 I-12.6070 J-5.2418 F100.00
G2 X-158.8677 Y62.4356 Z-5.0000 I-162.2634 J-11.7861 F100.00
G2 X-159.2983 Y46.5733 Z-5.0000 I-149.3793 J-3.8820 F100.00
G2 X-162.2294 Y29.9215 Z-5.0000 I-86.3534 J6.6165 F100.00
G3 X-163.7393 Y24.9994 Z-5.0000 I113.4470 J-37.4926 F100.00
G3 X-164.3472 Y21.9842 Z-5.0000 I14.5727 J-4.5070 F100.00
G2 X-166.1894 Y16.4028 Z-5.0000 I-55.1968 J15.1229 F100.00
G3 X-169.5771 Y7.4633 Z-5.0000 I3662.0880 J-1392.8975 F100.00
G3 X-170.3735 Y4.2425 Z-5.0000 I11.0518 J-4.4417 F100.00
G3 X-169.4488 Y2.1832 Z-5.0000 I2.2545 J-0.2248 F100.00
G3 X-166.3780 Y0.9382 Z-5.0000 I5.8681 J10.0642 F100.00
G2 X-159.8265 Y-0.8188 Z-5.0000 I-2629.3775 J-9817.3878 F100.00
G2 X-155.1013 Y-2.6906 Z-5.0000 I-6.3668 J-22.9721 F100.00
G3 X-147.0530 Y-7.5849 Z-5.0000 I72.4030 J109.9981 F100.00
G2 X-144.0258 Y-9.5304 Z-5.0000 I-14.7521 J-26.2812 F100.00
G2 X-138.3934 Y-15.6888 Z-5.0000 I-11.3296 J-16.0167 F100.00
G2 X-138.4232 Y-18.7343 Z-5.0000 I-2.2645 J-1.5007 F100.00
G2 X-140.4435 Y-20.7760 Z-5.0000 I-6.3525 J4.2657 F100.00
G1 X-140.9860 Y-21.1573 Z-5.0000 F100.00
G2 X-142.1720 Y-21.5266 Z-5.0000 I-0.9520 J0.9681 F100.00
G2 X-143.9459 Y-20.9053 Z-5.0000 I0.6327 J4.6493 F100.00
G2 X-144.0229 Y-20.8609 Z-5.0000 I6.7953 J11.8655 F100.00
G0 X-144.0229 Y-20.8609 Z6.0000
G0 X-168.2280 Y78.6552 Z6.0000
G0 X-168.2280 Y78.6552 Z1.0000
G1 X-168.2280 Y78.6552 Z-5.0000 F100.00
G1 X-165.6477 Y80.4966 Z-5.0000 F100.00
G3 X-167.8193 Y83.1130 Z-5.0000 I-23.7717 J-17.5219 F100.00
G2 X-171.4556 Y87.5826 Z-5.0000 I18.4953 J18.7606 F100.00
G2 X-171.2850 Y87.7219 Z-5.0000 I0.7434 J-0.7364 F100.00
G2 X-169.0452 Y85.8020 Z-5.0000 I-4.9037 J-7.9873 F100.00
G2 X-165.3209 Y80.0365 Z-5.0000 I-20.2987 J-17.1981 F100.00
G3 X-165.6477 Y80.4966 Z-5.0000 I-185.3118 J-131.2785 F100.00
G1 X-168.2280 Y78.6552 Z-5.0000 F100.00
G0 Z6.0000
G0 X-137.9152 Y53.8839
G0 Z4.0000
G1 X-137.9152 Y53.8839 Z-5.0000 F100.00
G2 X-136.3343 Y49.0313 Z-5.0000 I-3.9434 J-3.9686 F100.00
G2 X-138.3675 Y41.4776 Z-5.0000 I-48.4535 J8.9918 F100.00
G2 X-140.1772 Y38.0816 Z-5.0000 I-11.3048 J3.8440 F100.00
G3 X-142.3259 Y34.6500 Z-5.0000 I8.2864 J-7.5769 F100.00
G2 X-143.3202 Y32.5457 Z-5.0000 I-11.1669 J3.9895 F100.00
G2 X-146.9727 Y27.7744 Z-5.0000 I-25.6911 J15.8833 F100.00
G2 X-153.1447 Y21.8895 Z-5.0000 I-36.7464 J32.3604 F100.00
G2 X-154.8828 Y20.8568 Z-5.0000 I-4.9142 J6.2916 F100.00
G2 X-154.6385 Y21.3484 Z-5.0000 I3.9984 J-1.6803 F100.00
G2 X-152.8455 Y23.9305 Z-5.0000 I17.1257 J-9.9788 F100.00
G3 X-148.3592 Y31.0481 Z-5.0000 I-18.4119 J16.5778 F100.00
G2 X-145.0913 Y39.1436 Z-5.0000 I202.9988 J-77.2366 F100.00
G3 X-142.9201 Y48.5941 Z-5.0000 I-24.8568 J10.6853 F100.00
G1 X-139.7578 Y48.3732 Z-5.0000 F100.00
G3 X-139.6990 Y50.9920 Z-5.0000 I-117.7916 J3.9560 F100.00
G2 X-139.4773 Y49.4565 Z-5.0000 I-2.0998 J-1.0869 F100.00
G2 X-139.7860 Y47.9823 Z-5.0000 I-14.9286 J2.3567 F100.00
G3 X-139.7578 Y48.3732 Z-5.0000 I-155.1643 J11.3856 F100.00
G1 X-142.9201 Y48.5941 Z-5.0000 F100.00
G3 X-142.8441 Y51.7237 Z-5.0000 I-1282.0940 J32.7040 F100.00
G2 X-142.4002 Y54.6805 Z-5.0000 I12.0087 J-0.2913 F100.00
G2 X-142.0522 Y55.2559 Z-5.0000 I0.8432 J-0.1170 F100.00
G2 X-139.5502 Y55.1780 Z-5.0000 I1.1816 J-2.2646 F100.00
G2 X-138.0670 Y54.0291 Z-5.0000 I-3.0683 J-5.4931 F100.00
G2 X-137.9152 Y53.8839 Z-5.0000 I-3.7916 J-4.1138 F100.00
G0 Z6.0000
G0 X-114.7653 Y39.7837
G0 Z4.0000
G1 X-114.7653 Y39.7837 Z-5.0000 F100.00
G2 X-114.6637 Y39.7130 Z-5.0000 I-3.1195 J-4.5961 F100.00
G2 X-114.3147 Y39.0347 Z-5.0000 I-0.7495 J-0.8145 F100.00
G2 X-114.3878 Y36.0180 Z-5.0000 I-8.1470 J-1.3118 F100.00
G2 X-115.5174 Y31.5694 Z-5.0000 I-31.3007 J5.5807 F100.00
G3 X-116.5733 Y22.6271 Z-5.0000 I23.2384 J-7.2774 F100.00
G2 X-116.4298 Y19.8931 Z-5.0000 I-88.2733 J-6.0038 F100.00
G2 X-116.7181 Y16.5311 Z-5.0000 I-14.5133 J-0.4488 F100.00
G2 X-117.0825 Y15.7891 Z-5.0000 I-1.6384 J0.3441 F100.00
G2 X-118.3088 Y15.4868 Z-5.0000 I-1.0359 J1.5637 F100.00
G2 X-119.4037 Y15.6740 Z-5.0000 I-0.0208 J3.1741 F100.00
G2 X-121.2435 Y17.1960 Z-5.0000 I1.5751 J3.7769 F100.00
G2 X-122.7724 Y20.3494 Z-5.0000 I9.5800 J6.5922 F100.00
G2 X-122.8603 Y21.0980 Z-5.0000 I1.8644 J0.5982 F100.00
G1 X-119.6863 Y21.1445 Z-5.0000 F100.00
G2 X-119.6661 Y21.5174 Z-5.0000 I3.1364 J0.0164 F100.00
G3 X-119.6863 Y21.1445 Z-5.0000 I3.1162 J-0.3565 F100.00
G1 X-122.8603 Y21.0980 Z-5.0000 F100.00
G2 X-122.7854 Y22.1926 Z-5.0000 I9.2149 J-0.0799 F100.00
G2 X-121.3029 Y28.5173 Z-5.0000 I39.8663 J-6.0090 F100.00
G2 X-117.6058 Y39.8679 Z-5.0000 I447.7043 J-139.5481 F100.00
G2 X-117.4043 Y40.2097 Z-5.0000 I1.9686 J-0.9303 F100.00
G2 X-116.4237 Y40.5467 Z-5.0000 I0.6880 J-0.4066 F100.00
G2 X-114.7653 Y39.7837 Z-5.0000 I-1.4612 J-5.3591 F100.00
G0 X-114.7653 Y39.7837 Z6.0000
G0 X-119.6661 Y21.5174 Z6.0000
G0 X-119.6661 Y21.5174 Z1.8300
G1 X-119.6661 Y21.5174 Z-5.0000 F100.00
G2 X-119.6368 Y21.0108 Z-5.0000 I-5.3654 J-0.5643 F100.00
G3 X-119.6661 Y21.5174 Z-5.0000 I-5.3947 J-0.0577 F100.00
G0 X-119.6661 Y21.5174 Z6.0000
G0 X-119.6863 Y21.1445 Z6.0000
G0 X-119.6863 Y21.1445 Z1.8300
G1 X-119.6863 Y21.1445 Z-5.0000 F100.00
G1 X-119.6368 Y21.0108 Z-5.0000 F100.00
G1 X-119.6863 Y21.1445 Z-5.0000 F100.00
G0 Z6.0000
G0 X-82.0964 Y95.7071
G0 Z4.0000
G1 X-82.0964 Y95.7071 Z-5.0000 F100.00
G2 X-79.9169 Y93.2382 Z-5.0000 I-18.5951 J-18.6118 F100.00
G2 X-77.9433 Y89.1085 Z-5.0000 I-7.6067 J-6.1716 F100.00
G2 X-77.4596 Y84.4036 Z-5.0000 I-34.0225 J-5.8752 F100.00
G2 X-77.3691 Y74.3557 Z-5.0000 I-147.5827 J-6.3540 F100.00
G2 X-78.2093 Y57.7408 Z-5.0000 I-522.6893 J18.1024 F100.00
G3 X-78.8567 Y49.1844 Z-5.0000 I1523.9192 J-119.6056 F100.00
G3 X-79.2672 Y30.5531 Z-5.0000 I269.8023 J-15.2657 F100.00
G2 X-79.3358 Y18.9663 Z-5.0000 I-397.5760 J-3.4408 F100.00
G2 X-79.8846 Y10.8609 Z-5.0000 I-79.0365 J1.2797 F100.00
G2 X-80.8156 Y7.6254 Z-5.0000 I-11.0125 J1.4172 F100.00
G2 X-83.6914 Y5.5280 Z-5.0000 I-3.2522 J1.4390 F100.00
G2 X-84.4200 Y5.7516 Z-5.0000 I0.0371 J1.4201 F100.00
G2 X-86.2529 Y7.3324 Z-5.0000 I6.4820 J9.3685 F100.00
G1 X-84.0236 Y9.5865 Z-5.0000 F100.00
G1 X-83.5907 Y9.1713 Z-5.0000 F100.00
G3 X-82.9102 Y12.1739 Z-5.0000 I-8.9341 J3.6034 F100.00
G2 X-83.5907 Y9.1713 Z-5.0000 I-9.6146 J0.6007 F100.00
G2 X-85.6448 Y11.3087 Z-5.0000 I23.0045 J24.1634 F100.00
G3 X-84.0236 Y9.5865 Z-5.0000 I27.9250 J24.6643 F100.00
G1 X-86.2529 Y7.3324 Z-5.0000 F100.00
G2 X-91.1628 Y13.0500 Z-5.0000 I35.0877 J35.0983 F100.00
G2 X-92.4645 Y15.1909 Z-5.0000 I7.7223 J6.1613 F100.00
G2 X-91.9914 Y15.2742 Z-5.0000 I0.5071 J-1.4950 F100.00
G3 X-91.3396 Y14.6941 Z-5.0000 I6.0412 J6.1323 F100.00
G3 X-88.0625 Y13.7360 Z-5.0000 I2.6396 J2.9450 F100.00
G3 X-85.5068 Y15.8210 Z-5.0000 I-1.1278 J3.9914 F100.00
G3 X-84.7474 Y18.0654 Z-5.0000 I-3.9412 J2.5841 F100.00
G3 X-84.2368 Y25.9507 Z-5.0000 I-87.2377 J9.6075 F100.00
G3 X-83.8856 Y43.4088 Z-5.0000 I-914.8972 J27.1406 F100.00
G2 X-83.6326 Y50.4480 Z-5.0000 I170.9271 J-2.6182 F100.00
G2 X-83.5101 Y51.2370 Z-5.0000 I2.5415 J0.0094 F100.00
G3 X-83.2964 Y53.4018 Z-5.0000 I-11.6504 J2.2430 F100.00
G3 X-82.9157 Y69.5173 Z-5.0000 I-492.8275 J19.7030 F100.00
G1 X-82.4690 Y87.3134 Z-5.0000 F100.00
G3 X-82.6828 Y88.1491 Z-5.0000 I-1.5845 J0.0398 F100.00
G3 X-87.4190 Y93.7021 Z-5.0000 I-188.4049 J-155.8975 F100.00
G3 X-90.1479 Y96.6690 Z-5.0000 I-16954.6935 J-15591.6920 F100.00
G2 X-91.7610 Y98.7265 Z-5.0000 I12.2345 J11.2534 F100.00
G2 X-91.7546 Y98.9404 Z-5.0000 I0.0853 J0.1045 F100.00
G2 X-90.9064 Y100.0095 Z-5.0000 I3.8299 J-2.1675 F100.00
G2 X-89.3161 Y100.4314 Z-5.0000 I1.1703 J-1.2028 F100.00
G2 X-86.2376 Y99.0785 Z-5.0000 I-1.9099 J-8.5248 F100.00
G2 X-82.0964 Y95.7071 Z-5.0000 I-14.4538 J-21.9832 F100.00
G0 X-82.0964 Y95.7071 Z6.0000
G0 X-82.7297 Y14.2890 Z6.0000
G0 X-82.7297 Y14.2890 Z1.8300
G1 X-82.7297 Y14.2890 Z-5.0000 F100.00
G2 X-82.9102 Y12.1739 Z-5.0000 I-38.9232 J2.2562 F100.00
G3 X-82.7297 Y14.2890 Z-5.0000 I-38.7427 J4.3712 F100.00
G1 X-82.7297 Y14.2890 Z-5.0000 F100.00
G2 X-85.6448 Y11.3087 Z-5.0000 I-6.8847 J3.8182 F100.00
G3 X-82.7297 Y14.2890 Z-5.0000 I-3.9697 J6.7985 F100.00
G0 X-82.7297 Y14.2890 Z6.0000
G0 X-82.7270 Y14.2888 Z6.0000
G0 X-82.7270 Y14.2888 Z1.0000
G1 X-82.7270 Y14.2888 Z-5.0000 F100.00
G2 X-83.0188 Y11.3441 Z-5.0000 I-37.0649 J2.1866 F100.00
G2 X-83.5900 Y9.1729 Z-5.0000 I-8.1378 J0.9799 F100.00
G3 X-83.0188 Y11.3441 Z-5.0000 I-7.5667 J3.1511 F100.00
G3 X-82.7262 Y14.3029 Z-5.0000 I-36.7730 J5.1314 F100.00
G2 X-82.7270 Y14.2888 Z-5.0000 I-37.0657 J2.1726 F100.00
G0 X-82.7270 Y14.2888 Z6.0000
G0 X-82.7322 Y14.2917 Z6.0000
G0 X-82.7322 Y14.2917 Z1.0000
G1 X-82.7322 Y14.2917 Z-5.0000 F100.00
G3 X-82.7262 Y14.3029 Z-5.0000 I-6.8129 J3.7261 F100.00
G2 X-85.6450 Y11.3030 Z-5.0000 I-6.8190 J3.7149 F100.00
G3 X-82.7322 Y14.2917 Z-5.0000 I-3.9001 J6.7147 F100.00
G0 X-82.7322 Y14.2917 Z6.0000
G0 X-85.4403 Y15.9131 Z6.0000
G0 X-85.4403 Y15.9131 Z1.0000
G1 X-85.4403 Y15.9131 Z-5.0000 F100.00
G3 X-84.7933 Y17.7685 Z-5.0000 I-4.1626 J2.4922 F100.00
G3 X-84.2646 Y25.1666 Z-5.0000 I-69.5459 J8.6874 F100.00
G3 X-83.9168 Y41.9427 Z-5.0000 I-799.8380 J24.9751 F100.00
G2 X-83.6590 Y50.0656 Z-5.0000 I228.9901 J-3.2015 F100.00
G2 X-83.4405 Y51.6253 Z-5.0000 I10.6550 J-0.6977 F100.00
G3 X-83.1773 Y56.2462 Z-5.0000 I-48.3231 J5.0699 F100.00
G3 X-82.9158 Y69.5162 Z-5.0000 I-714.1629 J20.7157 F100.00
G1 X-82.4690 Y87.3134 Z-5.0000 F100.00
G3 X-82.6828 Y88.1491 Z-5.0000 I-1.5845 J0.0398 F100.00
G3 X-87.4200 Y93.7031 Z-5.0000 I-183.1864 J-151.4471 F100.00
G3 X-89.5364 Y95.9778 Z-5.0000 I-248.0210 J-228.6498 F100.00
G2 X-91.8093 Y98.8171 Z-5.0000 I14.9735 J14.3154 F100.00
G2 X-91.1793 Y99.7245 Z-5.0000 I2.5802 J-1.1191 F100.00
G2 X-89.5389 Y100.4567 Z-5.0000 I1.4164 J-0.9695 F100.00
G2 X-87.7338 Y99.9120 Z-5.0000 I-0.6453 J-5.4020 F100.00
G2 X-82.5486 Y96.1466 Z-5.0000 I-9.2173 J-18.1454 F100.00
G2 X-79.5732 Y92.7639 Z-5.0000 I-15.2955 J-16.4540 F100.00
G2 X-77.9210 Y88.9919 Z-5.0000 I-7.3495 J-5.4670 F100.00
G2 X-77.4605 Y84.4213 Z-5.0000 I-32.6700 J-5.5998 F100.00
G2 X-77.3690 Y74.3581 Z-5.0000 I-150.6673 J-6.4021 F100.00
G2 X-78.2455 Y57.2191 Z-5.0000 I-516.3540 J17.8149 F100.00
G3 X-78.8199 Y49.7489 Z-5.0000 I2321.9228 J-182.2812 F100.00
G3 X-79.2714 Y31.1323 Z-5.0000 I258.3413 J-15.5793 F100.00
G2 X-79.2422 Y24.5021 Z-5.0000 I-3714.0327 J-19.6324 F100.00
G2 X-79.7360 Y12.0350 Z-5.0000 I-138.4811 J-0.7587 F100.00
G2 X-80.5357 Y8.2558 Z-5.0000 I-14.4874 J1.0914 F100.00
G2 X-81.7750 Y6.3452 Z-5.0000 I-4.4199 J1.5097 F100.00
G2 X-83.7350 Y5.5282 Z-5.0000 I-2.2725 J2.6926 F100.00
G2 X-84.3160 Y5.6874 Z-5.0000 I0.1170 J1.5676 F100.00
G2 X-86.1715 Y7.2519 Z-5.0000 I5.6451 J8.5769 F100.00
G2 X-90.5495 Y12.2315 Z-5.0000 I36.8157 J36.7823 F100.00
G2 X-92.4683 Y15.1893 Z-5.0000 I11.5664 J9.6049 F100.00
G2 X-92.0098 Y15.2758 Z-5.0000 I0.5316 J-1.5597 F100.00
G3 X-91.2353 Y14.6141 Z-5.0000 I8.6292 J9.3162 F100.00
G3 X-88.2560 Y13.7029 Z-5.0000 I2.5432 J2.9888 F100.00
G3 X-85.6311 Y15.6191 Z-5.0000 I-0.7736 J3.8155 F100.00
G3 X-85.4403 Y15.9131 Z-5.0000 I-3.9718 J2.7862 F100.00
G0 X-85.4403 Y15.9131 Z6.0000
G0 X-85.6450 Y11.3030 Z6.0000
G0 X-85.6450 Y11.3030 Z1.0000
G1 X-85.6450 Y11.3030 Z-5.0000 F100.00
G3 X-83.9496 Y9.5136 Z-5.0000 I30.1973 J26.9137 F100.00
G1 X-86.1715 Y7.2519 Z-5.0000 F100.00
G1 X-83.9496 Y9.5136 Z-5.0000 F100.00
G1 X-83.5900 Y9.1729 Z-5.0000 F100.00
G2 X-85.6450 Y11.3030 Z-5.0000 I24.1804 J25.3840 F100.00
G0 Z6.0000
G0 X-55.0699 Y29.7634
G0 Z4.0000
G1 X-55.0699 Y29.7634 Z-5.0000 F100.00
G2 X-54.5521 Y28.3321 Z-5.0000 I-2.1417 J-1.5841 F100.00
G2 X-54.7276 Y24.9841 Z-5.0000 I-12.1372 J-1.0424 F100.00
G2 X-57.3200 Y16.9030 Z-5.0000 I-34.9852 J6.7667 F100.00
G2 X-59.4429 Y13.3029 Z-5.0000 I-61.4257 J33.7953 F100.00
G2 X-67.5032 Y0.3867 Z-5.0000 I-821.2092 J503.5021 F100.00
G2 X-73.0722 Y-6.6999 Z-5.0000 I-42.8308 J27.9269 F100.00
G3 X-77.9302 Y-13.5254 Z-5.0000 I21.2915 J-20.2956 F100.00
G2 X-81.7556 Y-20.1883 Z-5.0000 I-53.7129 J26.4085 F100.00
G2 X-87.3966 Y-28.0739 Z-5.0000 I-125.5006 J83.8163 F100.00
G3 X-91.9479 Y-34.8309 Z-5.0000 I63.4123 J-47.6247 F100.00
G2 X-93.0443 Y-36.5964 Z-5.0000 I-22.7150 J12.8825 F100.00
G2 X-97.8224 Y-42.7922 Z-5.0000 I-87.7836 J62.7567 F100.00
G2 X-109.5019 Y-55.6088 Z-5.0000 I-104.0481 J83.0872 F100.00
G3 X-114.0450 Y-60.3642 Z-5.0000 I24.3245 J-27.7864 F100.00
G3 X-114.8644 Y-61.8823 Z-5.0000 I2.7999 J-2.4916 F100.00
G2 X-116.1496 Y-63.3450 Z-5.0000 I-10.0010 J7.4911 F100.00
G2 X-122.6619 Y-69.4767 Z-5.0000 I-96.6404 J96.1141 F100.00
G2 X-129.6315 Y-75.4314 Z-5.0000 I-68.4122 J73.0164 F100.00
G2 X-131.3218 Y-76.5258 Z-5.0000 I-5.8575 J7.1939 F100.00
G3 X-131.9205 Y-76.5945 Z-5.0000 I0.1163 J-3.6579 F100.00
G3 X-135.0719 Y-77.7973 Z-5.0000 I2.6346 J-11.6324 F100.00
G3 X-140.3814 Y-81.0224 Z-5.0000 I24.7121 J-46.6666 F100.00
G2 X-145.3688 Y-82.6371 Z-5.0000 I-14.6825 J36.8407 F100.00
G1 X-144.6272 Y-82.1028 Z-5.0000 F100.00
G3 X-126.8568 Y-67.9101 Z-5.0000 I-257.5427 J340.6857 F100.00
G3 X-122.0092 Y-63.3952 Z-5.0000 I-39.9107 J47.7118 F100.00
G3 X-113.0710 Y-53.7866 Z-5.0000 I-1771.2714 J1656.6617 F100.00
G3 X-101.0369 Y-40.0652 Z-5.0000 I-128.0963 J124.4823 F100.00
G3 X-90.2494 Y-23.7561 Z-5.0000 I-88.2716 J70.1082 F100.00
G2 X-88.6752 Y-21.5951 Z-5.0000 I10.0136 J-5.6409 F100.00
G3 X-87.1793 Y-20.1569 Z-5.0000 I-6.3176 J8.0682 F100.00
G3 X-84.5982 Y-16.0601 Z-5.0000 I-17.3199 J13.7733 F100.00
G2 X-80.6401 Y-9.7176 Z-5.0000 I36.6656 J-18.4751 F100.00
G3 X-76.9836 Y-4.6121 Z-5.0000 I-35.6471 J29.3919 F100.00
G2 X-72.6909 Y1.2988 Z-5.0000 I59.4106 J-38.6326 F100.00
G3 X-64.4057 Y12.8190 Z-5.0000 I-104.0636 J83.5811 F100.00
G3 X-58.1963 Y24.6135 Z-5.0000 I-60.6119 J39.4419 F100.00
G2 X-55.9530 Y29.9099 Z-5.0000 I49.3322 J-17.7712 F100.00
G2 X-55.5392 Y30.1821 Z-5.0000 I0.9460 J-0.9875 F100.00
G2 X-55.1320 Y29.8440 Z-5.0000 I-0.4705 J-0.9809 F100.00
G2 X-55.0699 Y29.7634 Z-5.0000 I-2.0796 J-1.6648 F100.00
G0 X-55.0699 Y29.7634 Z6.0000
G0 X-55.0704 Y29.7630 Z6.0000
G0 X-55.0704 Y29.7630 Z1.0000
G1 X-55.0704 Y29.7630 Z-5.0000 F100.00
G2 X-55.0087 Y29.6854 Z-5.0000 I-1.6775 J-1.3984 F100.00
G2 X-54.5182 Y27.9896 Z-5.0000 I-2.6888 J-1.6964 F100.00
G2 X-54.8559 Y24.2977 Z-5.0000 I-13.5123 J-0.6255 F100.00
G2 X-57.1157 Y17.3113 Z-5.0000 I-36.6403 J7.9928 F100.00
G2 X-58.8201 Y14.3307 Z-5.0000 I-26.5743 J13.2182 F100.00
G2 X-67.5027 Y0.3876 Z-5.0000 I-582.5110 J353.0638 F100.00
G2 X-73.0711 Y-6.6987 Z-5.0000 I-42.7310 J27.8473 F100.00
G3 X-77.8865 Y-13.4428 Z-5.0000 I20.7961 J-19.9399 F100.00
G2 X-82.2306 Y-20.9013 Z-5.0000 I-55.8150 J27.5143 F100.00
G2 X-87.9646 Y-28.8560 Z-5.0000 I-165.3432 J113.1397 F100.00
G3 X-91.8855 Y-34.7219 Z-5.0000 I62.1782 J-45.8055 F100.00
G2 X-94.1061 Y-38.0654 Z-5.0000 I-21.5872 J11.9280 F100.00
G2 X-99.8700 Y-45.2751 Z-5.0000 I-135.4053 J102.3417 F100.00
G2 X-109.6569 Y-55.7551 Z-5.0000 I-97.5916 J81.3282 F100.00
G3 X-113.6803 Y-59.9034 Z-5.0000 I27.6454 J-30.8380 F100.00
G3 X-114.9057 Y-61.9450 Z-5.0000 I4.0687 J-3.8307 F100.00
G2 X-116.5252 Y-63.7281 Z-5.0000 I-11.1045 J8.4590 F100.00
G2 X-122.6622 Y-69.4770 Z-5.0000 I-112.8480 J114.3159 F100.00
G2 X-130.0825 Y-75.7614 Z-5.0000 I-70.0437 J75.1806 F100.00
G2 X-131.3022 Y-76.5204 Z-5.0000 I-4.5489 J5.9508 F100.00
G3 X-131.9784 Y-76.6056 Z-5.0000 I0.2666 J-4.8404 F100.00
G3 X-134.9816 Y-77.7513 Z-5.0000 I2.4247 J-10.8652 F100.00
G3 X-140.3766 Y-81.0186 Z-5.0000 I24.8698 J-47.1527 F100.00
G2 X-145.3598 Y-82.6341 Z-5.0000 I-13.5263 J33.2295 F100.00
G1 X-144.9580 Y-82.3459 Z-5.0000 F100.00
G3 X-127.0558 Y-68.0814 Z-5.0000 I-268.1917 J354.9490 F100.00
G3 X-122.0102 Y-63.3963 Z-5.0000 I-43.4723 J51.8762 F100.00
G3 X-113.0706 Y-53.7862 Z-5.0000 I-1511.2159 J1414.7521 F100.00
G3 X-101.5979 Y-40.7761 Z-5.0000 I-130.5402 J126.6774 F100.00
G3 X-90.8575 Y-24.8537 Z-5.0000 I-88.9803 J71.6049 F100.00
G2 X-88.5980 Y-21.5200 Z-5.0000 I12.3271 J-5.9225 F100.00
G3 X-87.4697 Y-20.4898 Z-5.0000 I-5.3593 J7.0026 F100.00
G3 X-84.5930 Y-16.0504 Z-5.0000 I-16.4098 J13.7854 F100.00
G2 X-80.6401 Y-9.7175 Z-5.0000 I36.4703 J-18.3640 F100.00
G3 X-76.5904 Y-3.9960 Z-5.0000 I-37.6347 J30.9319 F100.00
G2 X-73.1782 Y0.6693 Z-5.0000 I57.7129 J-38.6309 F100.00
G3 X-63.6374 Y14.0456 Z-5.0000 I-105.6835 J85.4708 F100.00
G3 X-58.0781 Y24.9134 Z-5.0000 I-57.9307 J36.4895 F100.00
G2 X-55.9614 Y29.8984 Z-5.0000 I44.2400 J-15.8423 F100.00
G2 X-55.5362 Y30.1812 Z-5.0000 I0.9320 J-0.9405 F100.00
G1 X-55.5350 Y30.1807 Z-5.0000 F100.00
G2 X-55.0704 Y29.7630 Z-5.0000 I-1.2128 J-1.8161 F100.00
G0 Z6.0000
G0 X-26.7003 Y44.5413
G0 Z4.0000
G1 X-26.7003 Y44.5413 Z-5.0000 F100.00
G3 X-27.0555 Y44.7813 Z-5.0000 I-11.0002 J-15.8963 F100.00
G3 X-30.8072 Y47.2184 Z-5.0000 I-33.4932 J-47.4543 F100.00
G3 X-31.9340 Y47.7710 Z-5.0000 I-2.5443 J-3.7623 F100.00
G2 X-34.0450 Y48.1671 Z-5.0000 I1.1955 J12.1967 F100.00
G2 X-41.6477 Y50.4822 Z-5.0000 I45.6022 J163.3926 F100.00
G3 X-48.5241 Y52.3312 Z-5.0000 I-24.0414 J-75.7012 F100.00
G3 X-49.8726 Y52.5705 Z-5.0000 I-4.0897 J-19.1295 F100.00
G3 X-46.3505 Y50.5612 Z-5.0000 I32.3755 J52.6602 F100.00
G2 X-32.3395 Y40.6332 Z-5.0000 I-35.9942 J-65.6480 F100.00
G2 X-29.9200 Y37.9340 Z-5.0000 I-10.9703 J-12.2673 F100.00
G2 X-28.9279 Y35.5663 Z-5.0000 I-3.9956 J-3.0661 F100.00
G2 X-28.8473 Y34.4118 Z-5.0000 I-493.0060 J-34.9898 F100.00
G3 X-28.3240 Y33.2121 Z-5.0000 I1.9768 J0.1482 F100.00
G3 X-26.7311 Y32.6185 Z-5.0000 I1.6073 J1.8795 F100.00
G3 X-23.1419 Y33.3126 Z-5.0000 I0.6672 J6.1767 F100.00
G3 X-21.2652 Y36.0004 Z-5.0000 I-2.0595 J3.4371 F100.00
G3 X-21.1449 Y36.8734 Z-5.0000 I-3.9770 J0.9929 F100.00
G1 X-24.3101 Y37.0476 Z-5.0000 F100.00
G1 X-21.1449 Y36.8734 Z-5.0000 F100.00
G3 X-22.2619 Y40.1801 Z-5.0000 I-5.1960 J0.0868 F100.00
G2 X-23.2815 Y41.5210 Z-5.0000 I16.6656 J13.7311 F100.00
G3 X-26.7003 Y44.5413 Z-5.0000 I-14.4189 J-12.8760 F100.00
G0 X-26.7003 Y44.5413 Z6.0000
G0 X-28.5059 Y41.9366 Z6.0000
G0 X-28.5059 Y41.9366 Z1.8300
G1 X-28.5059 Y41.9366 Z-5.0000 F100.00
G2 X-25.7228 Y39.4960 Z-5.0000 I-9.2893 J-13.4001 F100.00
G3 X-24.8134 Y38.2959 Z-5.0000 I13.5383 J9.3144 F100.00
G2 X-24.3101 Y37.0476 Z-5.0000 I-1.6110 J-1.3752 F100.00
G2 X-24.5933 Y36.1645 Z-5.0000 I-1.6298 J0.0357 F100.00
G2 X-25.7654 Y35.7846 Z-5.0000 I-1.1363 J1.5079 F100.00
G3 X-27.2537 Y39.6486 Z-5.0000 I-7.9983 J-0.8622 F100.00
G3 X-30.6667 Y43.3958 Z-5.0000 I-16.4091 J-11.5177 F100.00
G2 X-28.8715 Y42.1828 Z-5.0000 I-86.9093 J-130.5597 F100.00
G2 X-28.5059 Y41.9366 Z-5.0000 I-8.9237 J-13.6463 F100.00
G0 Z6.0000
G0 X81.4521 Y87.6493
G0 Z4.0000
G1 X81.4521 Y87.6493 Z-5.0000 F100.00
G2 X80.9084 Y82.6919 Z-5.0000 I-28.0055 J0.5629 F100.00
G2 X76.4062 Y66.6457 Z-5.0000 I-104.4875 J20.6622 F100.00
G2 X73.8293 Y60.7603 Z-5.0000 I-44.8904 J16.1481 F100.00
G3 X72.2566 Y57.2793 Z-5.0000 I13.2172 J-8.0676 F100.00
G3 X72.2528 Y55.2258 Z-5.0000 I3.1910 J-1.0326 F100.00
G1 X69.2671 Y54.1608 Z-5.0000 F100.00
G2 X68.9327 Y55.8119 Z-5.0000 I5.2062 J1.9137 F100.00
G2 X68.0640 Y54.1152 Z-5.0000 I-44.5797 J21.7558 F100.00
G1 X69.2835 Y54.1152 Z-5.0000 F100.00
G2 X69.2671 Y54.1608 Z-5.0000 I4.8408 J1.7702 F100.00
G1 X72.2528 Y55.2258 Z-5.0000 F100.00
G3 X72.5795 Y54.6347 Z-5.0000 I1.7434 J0.5778 F100.00
G3 X75.1834 Y53.3782 Z-5.0000 I2.7873 J2.4500 F100.00
G3 X78.7980 Y53.7491 Z-5.0000 I0.7392 J10.5957 F100.00
G3 X85.0462 Y55.9279 Z-5.0000 I-9.8209 J38.2112 F100.00
G3 X95.4575 Y60.9851 Z-5.0000 I-49.5742 J115.3044 F100.00
G2 X98.0646 Y62.2162 Z-5.0000 I15.2923 J-29.0102 F100.00
G2 X100.1720 Y62.8205 Z-5.0000 I2.9932 J-6.4611 F100.00
G2 X101.7527 Y62.2759 Z-5.0000 I-0.2164 J-3.1948 F100.00
G2 X103.3767 Y60.9774 Z-5.0000 I-2.8633 J-5.2456 F100.00
G2 X103.3016 Y60.6887 Z-5.0000 I-0.2106 J-0.0994 F100.00
G2 X101.9641 Y59.5803 Z-5.0000 I-3.2733 J2.5889 F100.00
G2 X97.6373 Y57.7088 Z-5.0000 I-10.4818 J18.2956 F100.00
G3 X92.9163 Y55.3806 Z-5.0000 I7.8206 J-21.8089 F100.00
G2 X90.1936 Y53.9949 Z-5.0000 I-4.5252 J5.5234 F100.00
G2 X88.7656 Y53.8747 Z-5.0000 I-3.2944 J30.6034 F100.00
G3 X84.7105 Y52.1661 Z-5.0000 I1.6618 J-9.6107 F100.00
G2 X82.4856 Y51.5229 Z-5.0000 I-3.1850 J6.8480 F100.00
G2 X75.4901 Y50.9452 Z-5.0000 I-7.5820 J49.1649 F100.00
G1 X67.2480 Y50.9452 Z-5.0000 F100.00
G3 X65.7158 Y49.7658 Z-5.0000 I-0.0000 J-1.5850 F100.00
G1 X65.0853 Y47.3837 Z-5.0000 F100.00
G1 X64.8626 Y46.9285 Z-5.0000 F100.00
G2 X62.3422 Y42.9548 Z-5.0000 I-26.9938 J14.3350 F100.00
G1 X56.4257 Y35.9289 Z-5.0000 F100.00
G2 X49.8034 Y28.2556 Z-5.0000 I-71.5528 J55.0578 F100.00
G2 X44.0035 Y22.6850 Z-5.0000 I-47.3870 J43.5323 F100.00
G2 X41.5027 Y21.0562 Z-5.0000 I-7.3024 J8.4776 F100.00
G2 X40.8265 Y20.9303 Z-5.0000 I-0.5515 J1.0828 F100.00
G1 X40.9695 Y21.1180 Z-5.0000 F100.00
G2 X46.2936 Y27.2095 Z-5.0000 I80.7954 J-65.2444 F100.00
G3 X51.7133 Y33.5358 Z-5.0000 I-67.4500 J63.2690 F100.00
G3 X56.2880 Y40.5836 Z-5.0000 I-34.8111 J27.6046 F100.00
G2 X58.9991 Y45.6945 Z-5.0000 I210.6844 J-108.4816 F100.00
G2 X61.1413 Y48.9723 Z-5.0000 I21.5296 J-11.7323 F100.00
G3 X65.7102 Y56.4540 Z-5.0000 I-39.0594 J28.9886 F100.00
G3 X70.8064 Y68.0367 Z-5.0000 I-110.9542 J55.7301 F100.00
G3 X72.7300 Y73.4202 Z-5.0000 I-57.2458 J23.4895 F100.00
G3 X74.5803 Y83.4012 Z-5.0000 I-37.2855 J12.0742 F100.00
G1 X77.7456 Y83.2290 Z-5.0000 F100.00
G2 X77.7309 Y82.9614 Z-5.0000 I-167.9946 J9.1338 F100.00
G3 X78.2486 Y86.8181 Z-5.0000 I-28.5746 J5.7992 F100.00
G3 X77.4964 Y87.8008 Z-5.0000 I-13.5439 J-9.5884 F100.00
G2 X77.7456 Y83.2290 Z-5.0000 I-23.9657 J-3.5992 F100.00
G1 X74.5803 Y83.4012 Z-5.0000 F100.00
G3 X74.5875 Y84.6943 Z-5.0000 I-17.0198 J0.7411 F100.00
G3 X73.2980 Y91.0645 Z-5.0000 I-16.7110 J-0.0671 F100.00
G2 X73.5328 Y92.5879 Z-5.0000 I1.4538 J0.5557 F100.00
G2 X74.6206 Y93.6616 Z-5.0000 I3.6840 J-2.6444 F100.00
G2 X75.7879 Y94.3632 Z-5.0000 I2.6738 J-3.1267 F100.00
G2 X76.4294 Y93.8171 Z-5.0000 I-2.0103 J-3.0113 F100.00
G2 X80.4936 Y89.1194 Z-5.0000 I-32.6902 J-32.3885 F100.00
G2 X81.4521 Y87.6493 Z-5.0000 I-6.3022 J-5.1566 F100.00
G0 X81.4521 Y87.6493 Z6.0000
G0 X81.4532 Y87.6400 Z6.0000
G0 X81.4532 Y87.6400 Z1.0000
G1 X81.4532 Y87.6400 Z-5.0000 F100.00
G1 X81.4461 Y87.2290 Z-5.0000 F100.00
G2 X80.7951 Y82.0820 Z-5.0000 I-33.2801 J1.5949 F100.00
G2 X77.4027 Y69.4860 Z-5.0000 I-105.3477 J21.6171 F100.00
G2 X74.0523 Y61.1860 Z-5.0000 I-58.8922 J18.9463 F100.00
G3 X72.2474 Y57.2437 Z-5.0000 I15.4095 J-9.4394 F100.00
G3 X72.2546 Y55.2091 Z-5.0000 I3.1993 J-1.0060 F100.00
G1 X69.2669 Y54.1497 Z-5.0000 F100.00
G1 X72.2546 Y55.2091 Z-5.0000 F100.00
G3 X72.4351 Y54.8357 Z-5.0000 I2.1536 J0.8109 F100.00
G3 X74.8270 Y53.4252 Z-5.0000 I2.7981 J2.0117 F100.00
G3 X78.3935 Y53.6569 Z-5.0000 I1.1839 J9.3404 F100.00
G3 X83.8895 Y55.4501 Z-5.0000 I-8.2228 J34.5216 F100.00
G3 X95.4622 Y60.9876 Z-5.0000 I-48.4546 J116.1256 F100.00
G2 X99.1440 Y62.6101 Z-5.0000 I12.0645 J-22.3883 F100.00
G2 X100.5735 Y62.7767 Z-5.0000 I1.0091 J-2.4420 F100.00
G2 X102.3806 Y61.8537 Z-5.0000 I-1.2633 J-4.7039 F100.00
G2 X103.4160 Y60.9187 Z-5.0000 I-2.1585 J-3.4311 F100.00
G2 X103.2909 Y60.6758 Z-5.0000 I-0.5545 J0.1320 F100.00
G2 X101.5728 Y59.3541 Z-5.0000 I-3.9539 J3.3617 F100.00
G2 X97.6259 Y57.7047 Z-5.0000 I-10.7384 J20.1505 F100.00
G3 X92.8956 Y55.3667 Z-5.0000 I8.0688 J-22.2785 F100.00
G2 X91.5470 Y54.4964 Z-5.0000 I-42.4791 J64.3456 F100.00
G2 X89.4434 Y53.9231 Z-5.0000 I-2.1245 J3.6495 F100.00
G3 X85.4170 Y52.6117 Z-5.0000 I0.4282 J-8.1519 F100.00
G2 X84.2163 Y51.9537 Z-5.0000 I-3.1615 J4.3445 F100.00
G2 X81.9228 Y51.4298 Z-5.0000 I-3.8537 J11.5883 F100.00
G2 X75.4873 Y50.9452 Z-5.0000 I-7.2607 J53.4481 F100.00
G1 X67.2480 Y50.9452 Z-5.0000 F100.00
G3 X65.7158 Y49.7658 Z-5.0000 I-0.0000 J-1.5850 F100.00
G1 X65.0881 Y47.3944 Z-5.0000 F100.00
G2 X62.3411 Y42.9535 Z-5.0000 I-25.1149 J12.4651 F100.00
G1 X56.4257 Y35.9289 Z-5.0000 F100.00
G2 X45.0209 Y23.5458 Z-5.0000 I-78.7923 J61.1235 F100.00
G2 X41.9476 Y21.2640 Z-5.0000 I-11.3648 J12.0965 F100.00
G2 X40.8295 Y20.9276 Z-5.0000 I-1.0720 J1.5368 F100.00
G2 X44.6807 Y25.4413 Z-5.0000 I57.0340 J-44.7632 F100.00
G3 X51.0013 Y32.6308 Z-5.0000 I-94.6863 J89.6160 F100.00
G3 X55.4932 Y39.1028 Z-5.0000 I-39.6336 J32.3026 F100.00
G3 X57.6008 Y43.1441 Z-5.0000 I-64.0181 J35.9558 F100.00
G2 X60.7063 Y48.4243 Z-5.0000 I45.0150 J-22.9217 F100.00
G3 X64.7328 Y54.6041 Z-5.0000 I-32.2386 J25.4073 F100.00
G3 X70.4461 Y67.1184 Z-5.0000 I-99.8207 J53.1332 F100.00
G3 X72.9325 Y74.0962 Z-5.0000 I-63.1097 J26.4201 F100.00
G3 X74.5855 Y83.5821 Z-5.0000 I-36.4667 J11.2415 F100.00
G1 X77.7527 Y83.4487 Z-5.0000 F100.00
G3 X77.4895 Y87.8179 Z-5.0000 I-23.4882 J0.7778 F100.00
G2 X78.2505 Y86.8126 Z-5.0000 I-13.3939 J-10.9300 F100.00
G2 X77.7292 Y82.9524 Z-5.0000 I-30.5034 J2.1546 F100.00
G3 X77.7527 Y83.4487 Z-5.0000 I-70.4683 J3.5868 F100.00
G1 X74.5855 Y83.5821 Z-5.0000 F100.00
G3 X73.3006 Y91.0545 Z-5.0000 I-17.6313 J0.8149 F100.00
G2 X73.4992 Y92.5373 Z-5.0000 I1.4718 J0.5576 F100.00
G2 X75.7797 Y94.3642 Z-5.0000 I4.7786 J-3.6284 F100.00
G2 X76.3248 Y93.9150 Z-5.0000 I-2.3194 J-3.3703 F100.00
G2 X80.0381 Y89.7081 Z-5.0000 I-32.4679 J-32.4003 F100.00
G2 X81.4532 Y87.6400 Z-5.0000 I-8.9143 J-7.6178 F100.00
G0 X81.4532 Y87.6400 Z6.0000
G0 X68.9330 Y55.8058 Z6.0000
G0 X68.9330 Y55.8058 Z1.0000
G1 X68.9330 Y55.8058 Z-5.0000 F100.00
G3 X69.2669 Y54.1497 Z-5.0000 I5.6975 J0.2872 F100.00
G3 X69.2793 Y54.1152 Z-5.0000 I1.5612 J0.5443 F100.00
G1 X68.0652 Y54.1152 Z-5.0000 F100.00
G3 X68.9330 Y55.8058 Z-5.0000 I-43.9019 J23.6021 F100.00
G0 Z6.0000
G0 X93.0706 Y33.1549
G0 Z4.0000
G1 X93.0706 Y33.1549 Z-5.0000 F100.00
G2 X93.1478 Y32.6824 Z-5.0000 I-0.8863 J-0.3874 F100.00
G2 X92.5806 Y31.4667 Z-5.0000 I-2.0615 J0.2216 F100.00
G2 X90.1969 Y29.9550 Z-5.0000 I-3.0100 J2.1110 F100.00
G3 X88.0624 Y29.6324 Z-5.0000 I0.0249 J-7.3870 F100.00
G3 X83.2682 Y27.7043 Z-5.0000 I9.0068 J-29.3194 F100.00
G3 X75.5016 Y23.9705 Z-5.0000 I198.6246 J-423.1023 F100.00
G3 X71.9422 Y21.9426 Z-5.0000 I6.3581 J-15.2970 F100.00
G3 X70.6755 Y20.2392 Z-5.0000 I1.9761 J-2.7922 F100.00
G3 X70.9037 Y17.9878 Z-5.0000 I4.0058 J-0.7312 F100.00
G3 X73.1562 Y13.2919 Z-5.0000 I26.4494 J9.7987 F100.00
G2 X75.2291 Y8.8547 Z-5.0000 I-26.9552 J-15.2951 F100.00
G2 X75.7477 Y5.5296 Z-5.0000 I-8.0489 J-2.9584 F100.00
G3 X76.2155 Y3.3339 Z-5.0000 I6.3208 J0.1989 F100.00
G3 X78.8452 Y1.9250 Z-5.0000 I2.1360 J0.8282 F100.00
G3 X82.4453 Y3.4624 Z-5.0000 I-4.6620 J15.9004 F100.00
G3 X89.7501 Y7.6203 Z-5.0000 I-114.8875 J210.3378 F100.00
G2 X92.4549 Y9.0415 Z-5.0000 I16.5942 J-28.2961 F100.00
G2 X95.6951 Y6.1741 Z-5.0000 I-8.1203 J-12.4407 F100.00
G1 X95.3210 Y5.9152 Z-5.0000 F100.00
G2 X88.9838 Y2.6988 Z-5.0000 I-26.0126 J43.4005 F100.00
G3 X88.3501 Y2.5761 Z-5.0000 I1.0644 J-7.1978 F100.00
G3 X85.6521 Y1.1417 Z-5.0000 I3.9002 J-10.5900 F100.00
G2 X79.1605 Y-2.8071 Z-5.0000 I-37.6497 J54.5839 F100.00
G3 X75.5105 Y-5.5280 Z-5.0000 I5.0948 J-10.6433 F100.00
G3 X74.6146 Y-6.9331 Z-5.0000 I4.6675 J-3.9639 F100.00
G3 X73.8623 Y-10.0973 Z-5.0000 I11.8949 J-4.4995 F100.00
G3 X72.5215 Y-23.0002 Z-5.0000 I196.8455 J-26.9762 F100.00
G3 X72.2371 Y-27.9318 Z-5.0000 I176.8060 J-12.6723 F100.00
G3 X71.6230 Y-42.3903 Z-5.0000 I315.3288 J-20.6356 F100.00
G3 X71.9095 Y-45.5323 Z-5.0000 I14.6257 J-0.2504 F100.00
G3 X73.3942 Y-48.2282 Z-5.0000 I4.5053 J0.7244 F100.00
G3 X76.5395 Y-48.5794 Z-5.0000 I1.8477 J2.2879 F100.00
G3 X78.7822 Y-46.9869 Z-5.0000 I-3.0691 J6.6976 F100.00
G3 X85.7937 Y-36.2192 Z-5.0000 I-24.1425 J23.3874 F100.00
G2 X89.2920 Y-31.0566 Z-5.0000 I33.4150 J-18.8759 F100.00
G2 X87.9836 Y-34.4369 Z-5.0000 I-38.8458 J13.0919 F100.00
G3 X84.3102 Y-43.6591 Z-5.0000 I155.7032 J-67.3632 F100.00
G2 X76.8603 Y-56.7811 Z-5.0000 I-33.2706 J10.2132 F100.00
G2 X75.0718 Y-58.1023 Z-5.0000 I-8.1264 J9.1297 F100.00
G2 X68.8376 Y-61.3178 Z-5.0000 I-26.6384 J43.9945 F100.00
G2 X67.3695 Y-61.8302 Z-5.0000 I-3.8790 J8.7542 F100.00
G2 X66.5945 Y-60.8901 Z-5.0000 I1.1105 J1.7049 F100.00
G2 X65.9092 Y-57.3897 Z-5.0000 I8.6919 J3.5190 F100.00
G1 X69.0769 Y-57.2555 Z-5.0000 F100.00
G1 X69.1035 Y-57.6998 Z-5.0000 F100.00
G3 X73.3697 Y-55.4274 Z-5.0000 I-16.0221 J35.2204 F100.00
G3 X75.0044 Y-54.0849 Z-5.0000 I-2.6379 J4.8787 F100.00
G3 X76.7540 Y-51.8431 Z-5.0000 I-25.0873 J21.3836 F100.00
G2 X69.9653 Y-49.0851 Z-5.0000 I-1.5425 J5.9372 F100.00
G3 X76.7540 Y-51.8431 Z-5.0000 I5.2462 J3.1792 F100.00
G2 X75.0044 Y-54.0849 Z-5.0000 I-26.8369 J19.1419 F100.00
G2 X73.3697 Y-55.4274 Z-5.0000 I-4.2727 J3.5362 F100.00
G2 X69.1035 Y-57.6998 Z-5.0000 I-20.2883 J32.9480 F100.00
G2 X69.2233 Y-53.6258 Z-5.0000 I22.0290 J1.3913 F100.00
G3 X69.0769 Y-57.2555 Z-5.0000 I24.9587 J-2.8242 F100.00
G1 X65.9092 Y-57.3897 Z-5.0000 F100.00
G2 X66.0689 Y-53.3062 Z-5.0000 I28.2619 J0.9401 F100.00
G3 X66.4981 Y-47.9644 Z-5.0000 I-38.1366 J5.7528 F100.00
G3 X66.3117 Y-46.9210 Z-5.0000 I-3.2354 J-0.0396 F100.00
G1 X66.3138 Y-46.6049 Z-5.0000 F100.00
G2 X66.8264 Y-41.5586 Z-5.0000 I52.8191 J-2.8162 F100.00
G3 X68.1468 Y-24.9857 Z-5.0000 I-126.1111 J18.3868 F100.00
G3 X67.8800 Y-16.0744 Z-5.0000 I-78.9035 J2.0967 F100.00
G3 X67.4004 Y-13.8765 Z-5.0000 I-9.1212 J-0.8389 F100.00
G3 X64.4932 Y-12.0792 Z-5.0000 I-2.5488 J-0.8729 F100.00
G3 X61.4398 Y-13.3036 Z-5.0000 I1.1689 J-7.3345 F100.00
G2 X53.8453 Y-16.3059 Z-5.0000 I-25.5401 J53.4993 F100.00
G2 X43.6015 Y-18.1162 Z-5.0000 I-11.5731 J35.5996 F100.00
G2 X37.6783 Y-18.4577 Z-5.0000 I-6.4932 J61.0847 F100.00
G2 X38.0426 Y-18.3397 Z-5.0000 I0.5512 J-1.0809 F100.00
G3 X40.5978 Y-18.0209 Z-5.0000 I-0.3889 J13.5149 F100.00
G3 X46.5522 Y-16.1415 Z-5.0000 I-10.0077 J42.0804 F100.00
G3 X59.7865 Y-10.0807 Z-5.0000 I-32.4696 J88.3796 F100.00
G3 X65.1181 Y-6.6956 Z-5.0000 I-67.5132 J112.2264 F100.00
G3 X68.7670 Y-4.2246 Z-5.0000 I-46.4957 J72.5875 F100.00
G3 X70.0003 Y-2.6393 Z-5.0000 I-2.7573 J3.4176 F100.00
G3 X70.9865 Y1.7589 Z-5.0000 I-11.9690 J4.9935 F100.00
G3 X70.4212 Y9.9805 Z-5.0000 I-22.4510 J2.5863 F100.00
G3 X65.2469 Y18.9561 Z-5.0000 I-21.6094 J-6.4780 F100.00
G1 X67.5640 Y21.1195 Z-5.0000 F100.00
G1 X65.2469 Y18.9561 Z-5.0000 F100.00
G3 X64.6372 Y19.5325 Z-5.0000 I-6.1012 J-5.8434 F100.00
G3 X62.1232 Y20.9496 Z-5.0000 I-4.1794 J-4.4759 F100.00
G2 X59.5275 Y21.7244 Z-5.0000 I1.9322 J11.2082 F100.00
G2 X59.0459 Y22.2460 Z-5.0000 I0.2239 J0.6898 F100.00
G2 X59.3930 Y22.5486 Z-5.0000 I0.9450 J-0.7337 F100.00
G2 X62.1531 Y23.4452 Z-5.0000 I3.5691 J-6.2910 F100.00
G3 X65.8095 Y24.0973 Z-5.0000 I-1.4487 J18.6994 F100.00
G3 X72.8452 Y26.6642 Z-5.0000 I-14.2181 J49.8963 F100.00
G3 X83.0641 Y32.0507 Z-5.0000 I-23.0161 J56.0519 F100.00
G2 X86.5849 Y34.0126 Z-5.0000 I5.4194 J-5.5854 F100.00
G2 X90.7225 Y34.1944 Z-5.0000 I2.5656 J-11.2158 F100.00
G2 X92.6521 Y33.6141 Z-5.0000 I-0.3656 J-4.7139 F100.00
G2 X93.0706 Y33.1549 Z-5.0000 I-0.4678 J-0.8466 F100.00
G0 X93.0706 Y33.1549 Z6.0000
G0 X67.6991 Y21.3472 Z6.0000
G0 X67.6991 Y21.3472 Z1.8300
G1 X67.6991 Y21.3472 Z-5.0000 F100.00
G3 X67.6149 Y21.0648 Z-5.0000 I7.5045 J-2.3932 F100.00
G3 X67.5640 Y21.1195 Z-5.0000 I-25.7172 J-23.9119 F100.00
G3 X67.4216 Y21.2656 Z-5.0000 I-3.4058 J-3.1764 F100.00
G1 X67.6991 Y21.3472 Z-5.0000 F100.00
G0 X67.6991 Y21.3472 Z6.0000
G0 X74.0797 Y0.7878 Z6.0000
G0 X74.0797 Y0.7878 Z1.8300
G1 X74.0797 Y0.7878 Z-5.0000 F100.00
G2 X73.0801 Y-3.4928 Z-5.0000 I-15.5307 J1.3696 F100.00
G2 X73.0942 Y-3.4760 Z-5.0000 I1.6078 J-1.3421 F100.00
G1 X75.5105 Y-5.5280 Z-5.0000 F100.00
G1 X73.0942 Y-3.4760 Z-5.0000 F100.00
G2 X76.1707 Y-0.8640 Z-5.0000 I9.9960 J-8.6557 F100.00
G2 X74.0797 Y0.7878 Z-5.0000 I2.3079 J5.0711 F100.00
G0 X74.0797 Y0.7878 Z6.0000
G0 X71.6130 Y-5.8904 Z6.0000
G0 X71.6130 Y-5.8904 Z1.8300
G1 X71.6130 Y-5.8904 Z-5.0000 F100.00
G2 X69.6889 Y-7.4616 Z-5.0000 I-6.9571 J6.5554 F100.00
G2 X66.9569 Y-9.2804 Z-5.0000 I-70.5708 J103.0459 F100.00
G2 X70.3240 Y-12.6512 Z-5.0000 I-2.1093 J-5.4741 F100.00
G1 X67.4004 Y-13.8765 Z-5.0000 F100.00
G1 X70.3240 Y-12.6512 Z-5.0000 F100.00
G2 X71.3425 Y-6.6538 Z-5.0000 I42.0249 J-4.0516 F100.00
G2 X71.6130 Y-5.8904 Z-5.0000 I12.5314 J-4.0098 F100.00
G0 X71.6130 Y-5.8904 Z6.0000
G0 X69.6727 Y-48.5937 Z6.0000
G0 X69.6727 Y-48.5937 Z1.8300
G1 X69.6727 Y-48.5937 Z-5.0000 F100.00
G2 X69.2233 Y-53.6258 Z-5.0000 I-47.3695 J1.6944 F100.00
G3 X69.6727 Y-48.5937 Z-5.0000 I-46.9201 J6.7265 F100.00
G1 X69.6727 Y-48.5937 Z-5.0000 F100.00
G3 X69.9653 Y-49.0851 Z-5.0000 I7.0362 J3.8572 F100.00
G2 X69.6727 Y-48.5937 Z-5.0000 I6.7436 J4.3486 F100.00
G0 Z6.0000
G0 X178.2619 Y60.4488
G0 Z4.0000
G1 X178.2619 Y60.4488 Z-5.0000 F100.00
G2 X178.3392 Y59.3510 Z-5.0000 I-3.9773 J-0.8319 F100.00
G2 X176.4478 Y51.1573 Z-5.0000 I-24.0939 J1.2468 F100.00
G2 X171.5281 Y43.3116 Z-5.0000 I-27.8401 J11.9917 F100.00
G3 X168.4835 Y38.6200 Z-5.0000 I11.0984 J-10.5360 F100.00
G3 X168.5469 Y32.4390 Z-5.0000 I7.3394 J-3.0156 F100.00
G2 X168.6938 Y30.1080 Z-5.0000 I-2.0544 J-1.2997 F100.00
G2 X166.0267 Y27.7102 Z-5.0000 I-5.1055 J2.9967 F100.00
G2 X161.7687 Y26.4926 Z-5.0000 I-5.7965 J12.2162 F100.00
G3 X157.0330 Y25.2287 Z-5.0000 I1.6069 J-15.5243 F100.00
G1 X155.6833 Y28.0970 Z-5.0000 F100.00
G2 X161.2919 Y29.6268 Z-5.0000 I7.6474 J-16.9909 F100.00
G3 X164.6033 Y30.5437 Z-5.0000 I-1.1271 J10.5087 F100.00
G3 X165.6062 Y31.2501 Z-5.0000 I-1.1279 J2.6665 F100.00
G2 X164.8807 Y37.3975 Z-5.0000 I9.9324 J4.2887 F100.00
G2 X158.3584 Y30.3705 Z-5.0000 I-68.7331 J57.2566 F100.00
G2 X155.6540 Y28.0830 Z-5.0000 I-24.9416 J26.7451 F100.00
G2 X155.6833 Y28.0970 Z-5.0000 I1.0247 J-2.1112 F100.00
G1 X157.0330 Y25.2287 Z-5.0000 F100.00
G3 X156.2332 Y24.7977 Z-5.0000 I4.9679 J-10.1768 F100.00
G3 X154.5186 Y23.2227 Z-5.0000 I2.7325 J-4.6955 F100.00
G3 X153.4020 Y20.1435 Z-5.0000 I3.5588 J-3.0326 F100.00
G3 X153.5711 Y15.2230 Z-5.0000 I71.1484 J-0.0182 F100.00
G3 X153.8095 Y12.7919 Z-5.0000 I45.9577 J3.2794 F100.00
G2 X154.0182 Y6.0287 Z-5.0000 I-47.0070 J-4.8354 F100.00
G3 X154.0403 Y3.0757 Z-5.0000 I11.4901 J-1.3904 F100.00
G3 X155.0393 Y0.9431 Z-5.0000 I3.7592 J0.4606 F100.00
G3 X157.6108 Y0.1968 Z-5.0000 I2.0407 J2.2284 F100.00
G3 X161.7267 Y1.2487 Z-5.0000 I-3.7844 J23.3868 F100.00
G3 X169.2843 Y3.9617 Z-5.0000 I-67.4466 J199.7731 F100.00
G2 X172.3896 Y4.5236 Z-5.0000 I4.6620 J-16.9002 F100.00
G2 X179.3864 Y4.8656 Z-5.0000 I6.9012 J-69.4567 F100.00
G2 X188.4100 Y4.6048 Z-5.0000 I2.2267 J-79.1950 F100.00
G2 X192.4927 Y3.7392 Z-5.0000 I-1.2053 J-15.7470 F100.00
G2 X196.4608 Y2.0418 Z-5.0000 I-6.9267 J-21.6792 F100.00
G2 X199.0664 Y-0.1361 Z-5.0000 I-3.4809 J-6.8121 F100.00
G2 X199.6687 Y-1.6804 Z-5.0000 I-4.0404 J-2.4654 F100.00
G2 X199.7707 Y-3.3144 Z-5.0000 I-14.3207 J-1.7140 F100.00
G2 X199.7164 Y-8.2456 Z-5.0000 I-85.0421 J-1.5292 F100.00
G2 X198.3220 Y-32.6948 Z-5.0000 I-645.3554 J24.5425 F100.00
G2 X197.2421 Y-43.9605 Z-5.0000 I-175.5271 J11.1398 F100.00
G1 X195.9088 Y-51.6639 Z-5.0000 F100.00
G2 X194.5700 Y-58.1506 Z-5.0000 I-256.6429 J49.5912 F100.00
G2 X191.6808 Y-69.2317 Z-5.0000 I-122.1012 J25.9185 F100.00
G2 X189.3739 Y-75.0176 Z-5.0000 I-35.3900 J10.7574 F100.00
G2 X188.3176 Y-76.5787 Z-5.0000 I-6.5445 J3.2901 F100.00
G1 X185.9943 Y-74.4207 Z-5.0000 F100.00
G1 X185.9178 Y-74.4993 Z-5.0000 F100.00
G2 X182.2981 Y-70.3614 Z-5.0000 I18.7361 J20.0421 F100.00
G3 X183.8522 Y-70.1295 Z-5.0000 I-0.1033 J6.0163 F100.00
G2 X182.2981 Y-70.3614 Z-5.0000 I-1.6574 J5.7844 F100.00
G3 X185.9178 Y-74.4993 Z-5.0000 I22.3558 J15.9043 F100.00
G3 X186.8585 Y-72.9699 Z-5.0000 I-3.9477 J3.4820 F100.00
G3 X189.5534 Y-65.2751 Z-5.0000 I-44.5730 J19.9298 F100.00
G1 X189.6569 Y-64.8930 Z-5.0000 F100.00
G1 X189.5534 Y-65.2751 Z-5.0000 F100.00
G2 X186.8585 Y-72.9699 Z-5.0000 I-47.2679 J12.2350 F100.00
G2 X185.9943 Y-74.4207 Z-5.0000 I-5.2806 J2.1625 F100.00
G1 X188.3176 Y-76.5787 Z-5.0000 F100.00
G2 X187.0302 Y-77.7423 Z-5.0000 I-6.5614 J5.9655 F100.00
G2 X185.9410 Y-78.1931 Z-5.0000 I-1.2922 J1.5811 F100.00
G2 X185.2545 Y-77.9526 Z-5.0000 I0.1840 J1.6252 F100.00
G2 X183.3776 Y-76.4697 Z-5.0000 I4.9494 J8.1939 F100.00
G2 X177.9924 Y-69.7417 Z-5.0000 I28.6378 J28.4411 F100.00
G2 X172.4838 Y-59.6477 Z-5.0000 I62.2983 J40.5486 F100.00
G2 X170.3698 Y-54.1732 Z-5.0000 I31.9605 J15.4873 F100.00
G2 X171.9870 Y-56.2565 Z-5.0000 I-16.7811 J-14.6964 F100.00
G3 X178.3962 Y-64.0254 Z-5.0000 I70.2781 J51.4508 F100.00
G3 X180.7726 Y-66.6056 Z-5.0000 I16.7559 J13.0472 F100.00
G3 X182.9064 Y-67.1032 Z-5.0000 I1.5116 J1.6582 F100.00
G3 X187.1441 Y-62.6330 Z-5.0000 I-2.4091 J6.5275 F100.00
G3 X189.6268 Y-51.6597 Z-5.0000 I-157.7914 J41.4682 F100.00
G2 X191.5640 Y-42.7341 Z-5.0000 I126.2105 J-22.7196 F100.00
G3 X192.0166 Y-40.9747 Z-5.0000 I-6.4155 J2.5880 F100.00
G3 X192.5083 Y-35.1176 Z-5.0000 I-68.3005 J8.6827 F100.00
G2 X193.0481 Y-26.6912 Z-5.0000 I863.8459 J-51.1167 F100.00
G2 X193.9250 Y-19.7856 Z-5.0000 I69.9257 J-5.3703 F100.00
G3 X194.4332 Y-11.3758 Z-5.0000 I-58.9482 J7.7829 F100.00
G3 X193.9601 Y-6.1554 Z-5.0000 I-25.2219 J0.3456 F100.00
G3 X192.4886 Y-2.8744 Z-5.0000 I-7.6775 J-1.4728 F100.00
G3 X191.7528 Y-2.2748 Z-5.0000 I-2.4862 J-2.2997 F100.00
G3 X187.4211 Y-0.2448 Z-5.0000 I-8.7517 J-13.0378 F100.00
G3 X176.4233 Y1.4131 Z-5.0000 I-11.2945 J-37.6191 F100.00
G3 X170.5080 Y0.5985 Z-5.0000 I-0.0378 J-21.6116 F100.00
G3 X162.8870 Y-1.7175 Z-5.0000 I101.3921 J-347.3351 F100.00
G3 X159.8597 Y-2.7179 Z-5.0000 I15.9355 J-53.3020 F100.00
G3 X153.9947 Y-5.6549 Z-5.0000 I7.5287 J-22.3589 F100.00
G3 X151.7773 Y-8.1744 Z-5.0000 I4.0435 J-5.7943 F100.00
G2 X150.4649 Y-11.0493 Z-5.0000 I-43.4892 J18.1149 F100.00
G3 X149.6130 Y-12.8183 Z-5.0000 I12.1845 J-6.9571 F100.00
G1 X146.6327 Y-11.7383 Z-5.0000 F100.00
G3 X146.5064 Y-12.0930 Z-5.0000 I41.7766 J-15.0715 F100.00
G3 X145.2249 Y-8.5096 Z-5.0000 I-7.3433 J-0.6052 F100.00
G3 X146.7942 Y-7.7507 Z-5.0000 I-3.7063 J9.6659 F100.00
G3 X150.2027 Y-3.4569 Z-5.0000 I-3.5635 J6.3286 F100.00
G3 X150.9741 Y2.2244 Z-5.0000 I-27.2908 J6.5986 F100.00
G3 X153.7125 Y-2.0467 Z-5.0000 I6.4704 J1.1352 F100.00
G3 X152.1687 Y-3.0637 Z-5.0000 I8.3822 J-14.4042 F100.00
G3 X148.8749 Y-6.8981 Z-5.0000 I5.8366 J-8.3455 F100.00
G2 X147.6424 Y-9.6057 Z-5.0000 I-86.2456 J37.6239 F100.00
G3 X146.6327 Y-11.7383 Z-5.0000 I14.6265 J-8.2307 F100.00
G1 X149.6130 Y-12.8183 Z-5.0000 F100.00
G3 X149.2195 Y-14.3068 Z-5.0000 I5.9190 J-2.3613 F100.00
G3 X150.0797 Y-17.1689 Z-5.0000 I3.2395 J-0.5867 F100.00
G3 X153.0064 Y-18.2885 Z-5.0000 I2.9225 J3.2547 F100.00
G2 X155.7560 Y-18.7073 Z-5.0000 I0.1765 J-8.0770 F100.00
G3 X162.7310 Y-20.8231 Z-5.0000 I16.2091 J40.8798 F100.00
G2 X169.0920 Y-23.3396 Z-5.0000 I-10.5892 J-36.0640 F100.00
G2 X177.6284 Y-28.4119 Z-5.0000 I-20.6054 J-44.3972 F100.00
G2 X181.1094 Y-32.2290 Z-5.0000 I-8.6083 J-11.3459 F100.00
G2 X181.6264 Y-34.3791 Z-5.0000 I-2.8652 J-1.8262 F100.00
G2 X180.4785 Y-37.1075 Z-5.0000 I-5.7579 J0.8168 F100.00
G1 X177.8981 Y-35.2637 Z-5.0000 F100.00
G1 X177.7078 Y-35.5135 Z-5.0000 F100.00
G1 X175.5820 Y-35.0976 Z-5.0000 F100.00
G3 X173.7770 Y-32.1647 Z-5.0000 I-17.0418 J-8.4663 F100.00
G2 X175.5820 Y-35.0976 Z-5.0000 I-15.2368 J-11.3992 F100.00
G1 X177.7078 Y-35.5135 Z-5.0000 F100.00
G3 X178.4497 Y-34.1640 Z-5.0000 I-2.6356 J2.3275 F100.00
G3 X178.4200 Y-33.9261 Z-5.0000 I-0.2009 J0.0958 F100.00
G3 X177.3451 Y-32.4596 Z-5.0000 I-5.8313 J-3.1473 F100.00
G2 X178.4701 Y-34.0385 Z-5.0000 I-3.9526 J-4.0067 F100.00
G2 X177.8981 Y-35.2637 Z-5.0000 I-2.6836 J0.5068 F100.00
G1 X180.4785 Y-37.1075 Z-5.0000 F100.00
G2 X179.2368 Y-38.4445 Z-5.0000 I-4.7732 J3.1880 F100.00
G2 X178.0547 Y-38.8083 Z-5.0000 I-1.0104 J1.1811 F100.00
G3 X174.4328 Y-38.1030 Z-5.0000 I-60.5580 J-301.3672 F100.00
G2 X173.5682 Y-37.8519 Z-5.0000 I0.6758 J3.9406 F100.00
G2 X172.8751 Y-36.7899 Z-5.0000 I0.9999 J1.4098 F100.00
G3 X171.1791 Y-33.9812 Z-5.0000 I-13.9734 J-6.5210 F100.00
G3 X165.5268 Y-27.7348 Z-5.0000 I-39.8162 J-30.3488 F100.00
G3 X161.1066 Y-24.4784 Z-5.0000 I-14.0540 J-14.4482 F100.00
G2 X155.8391 Y-21.3601 Z-5.0000 I10.1822 J23.2087 F100.00
G3 X151.5746 Y-19.3566 Z-5.0000 I-5.5237 J-6.2171 F100.00
G3 X147.7631 Y-20.4213 Z-5.0000 I-0.7289 J-4.7454 F100.00
G1 X145.7531 Y-17.9701 Z-5.0000 F100.00
G1 X147.7631 Y-20.4213 Z-5.0000 F100.00
G3 X145.5028 Y-23.0925 Z-5.0000 I6.6394 J-7.9100 F100.00
G2 X143.3015 Y-27.1821 Z-5.0000 I-31.3589 J14.2420 F100.00
G2 X133.4223 Y-39.8271 Z-5.0000 I-75.4602 J48.7733 F100.00
G2 X131.0213 Y-41.8068 Z-5.0000 I-9.3160 J8.8529 F100.00
G2 X128.1915 Y-42.3507 Z-5.0000 I-2.0495 J3.0297 F100.00
G2 X129.1413 Y-40.8882 Z-5.0000 I3.4341 J-1.1905 F100.00
G3 X132.7693 Y-36.7418 Z-5.0000 I-24.1738 J24.8114 F100.00
G3 X138.6603 Y-27.3202 Z-5.0000 I-61.4231 J44.9587 F100.00
G3 X139.9573 Y-24.7114 Z-5.0000 I-18.6747 J10.9115 F100.00
G3 X143.1403 Y-15.1553 Z-5.0000 I-71.4885 J29.1197 F100.00
G3 X143.2004 Y-11.5741 Z-5.0000 I-6.7972 J1.9051 F100.00
G3 X140.0220 Y-9.0419 Z-5.0000 I-3.1075 J-0.6396 F100.00
G3 X136.6976 Y-10.0679 Z-5.0000 I0.4933 J-7.4973 F100.00
G2 X134.7527 Y-11.1245 Z-5.0000 I-83.0334 J150.5213 F100.00
G2 X131.2087 Y-11.9429 Z-5.0000 I-3.4435 J6.8287 F100.00
G3 X127.9064 Y-13.2660 Z-5.0000 I0.0384 J-4.8785 F100.00
G2 X127.5191 Y-13.6877 Z-5.0000 I-6.2101 J5.3157 F100.00
G2 X121.6717 Y-16.1618 Z-5.0000 I-14.1675 J25.3371 F100.00
G2 X119.5339 Y-16.5504 Z-5.0000 I-2.5250 J7.8154 F100.00
G3 X117.4962 Y-17.0893 Z-5.0000 I-0.0296 J-4.0102 F100.00
G3 X115.8446 Y-19.7527 Z-5.0000 I2.0843 J-3.1363 F100.00
G1 X112.7174 Y-19.2337 Z-5.0000 F100.00
G3 X112.7036 Y-19.3199 Z-5.0000 I9.6803 J-1.5960 F100.00
G3 X111.8907 Y-18.0754 Z-5.0000 I-16.8287 J-10.1044 F100.00
G3 X113.0343 Y-18.0022 Z-5.0000 I-0.6657 J19.3551 F100.00
G3 X112.7174 Y-19.2337 Z-5.0000 I7.9684 J-2.7068 F100.00
G1 X115.8446 Y-19.7527 Z-5.0000 F100.00
G3 X115.8048 Y-22.3679 Z-5.0000 I8.1486 J-1.4319 F100.00
G3 X115.9172 Y-22.8313 Z-5.0000 I1.5790 J0.1374 F100.00
G1 X118.4347 Y-28.9771 Z-5.0000 F100.00
G2 X118.9652 Y-30.8286 Z-5.0000 I-11.7464 J-4.3675 F100.00
G2 X119.8706 Y-37.2038 Z-5.0000 I-48.5991 J-10.1535 F100.00
G2 X120.6000 Y-53.6052 Z-5.0000 I-210.3264 J-17.5710 F100.00
G1 X117.4299 Y-53.5865 Z-5.0000 F100.00
G3 X117.3717 Y-49.6147 Z-5.0000 I-84.9900 J0.7406 F100.00
G3 X117.3687 Y-56.1488 Z-5.0000 I72.6589 J-3.3002 F100.00
G3 X117.4299 Y-53.5865 Z-5.0000 I-55.5381 J2.6085 F100.00
G1 X120.6000 Y-53.6052 Z-5.0000 F100.00
G2 X120.5343 Y-56.3209 Z-5.0000 I-58.9308 J0.0663 F100.00
G2 X120.1562 Y-59.4096 Z-5.0000 I-15.5000 J0.3301 F100.00
G2 X119.7420 Y-59.4862 Z-5.0000 I-0.5319 J1.7173 F100.00
G2 X117.5670 Y-59.3939 Z-5.0000 I-0.7080 J8.9873 F100.00
G2 X114.4661 Y-58.7913 Z-5.0000 I1.1399 J14.1438 F100.00
G2 X114.2760 Y-57.4378 Z-5.0000 I8.5014 J1.8843 F100.00
G2 X114.1540 Y-50.8352 Z-5.0000 I62.4206 J4.4558 F100.00
G2 X114.7629 Y-44.5358 Z-5.0000 I35.4475 J-0.2471 F100.00
G3 X115.1176 Y-42.1970 Z-5.0000 I-12.4212 J3.0801 F100.00
G3 X113.6777 Y-29.5969 Z-5.0000 I-42.2822 J1.5504 F100.00
G3 X108.2133 Y-18.4208 Z-5.0000 I-30.1389 J-7.8122 F100.00
G2 X107.3276 Y-17.3420 Z-5.0000 I4.4388 J4.5472 F100.00
G2 X106.9708 Y-16.3326 Z-5.0000 I1.6826 J1.1625 F100.00
G3 X107.0715 Y-15.3739 Z-5.0000 I-10.8969 J1.6287 F100.00
G1 X107.1874 Y-15.3405 Z-5.0000 F100.00
G2 X110.8781 Y-14.9548 Z-5.0000 I4.2243 J-22.5675 F100.00
G3 X121.2321 Y-13.2473 Z-5.0000 I-1.0116 J38.3820 F100.00
G3 X125.5439 Y-11.4645 Z-5.0000 I-10.8142 J32.2597 F100.00
G2 X129.1467 Y-10.1241 Z-5.0000 I9.3652 J-19.6595 F100.00
G3 X130.9254 Y-9.8306 Z-5.0000 I-0.3759 J7.8163 F100.00
G3 X135.4448 Y-8.2947 Z-5.0000 I-11.7334 J41.9415 F100.00
G2 X142.4123 Y-6.0416 Z-5.0000 I20.1721 J-50.4800 F100.00
G3 X144.6707 Y-5.2983 Z-5.0000 I-2.0491 J10.0281 F100.00
G3 X146.8437 Y-3.3522 Z-5.0000 I-1.7870 J4.1816 F100.00
G3 X147.4615 Y-1.1472 Z-5.0000 I-6.0377 J2.8807 F100.00
G3 X147.9334 Y4.7326 Z-5.0000 I-53.1413 J7.2238 F100.00
G3 X147.9181 Y13.6525 Z-5.0000 I-73.8423 J4.3332 F100.00
G3 X147.3358 Y16.6503 Z-5.0000 I-11.7700 J-0.7308 F100.00
G3 X145.7406 Y18.3243 Z-5.0000 I-2.5764 J-0.8582 F100.00
G3 X142.6161 Y17.7693 Z-5.0000 I-1.0410 J-3.2120 F100.00
G3 X140.2398 Y15.4801 Z-5.0000 I7.2429 J-9.8962 F100.00
G1 X137.9119 Y17.6325 Z-5.0000 F100.00
G2 X137.3367 Y17.0539 Z-5.0000 I-7.3531 J6.7352 F100.00
G2 X137.4350 Y17.6778 Z-5.0000 I9.9275 J-1.2450 F100.00
G3 X137.3511 Y23.2684 Z-5.0000 I-22.9330 J2.4519 F100.00
G3 X139.6029 Y21.9660 Z-5.0000 I4.2197 J4.6975 F100.00
G3 X144.7186 Y22.0963 Z-5.0000 I2.3536 J8.0834 F100.00
G3 X152.8146 Y26.0882 Z-5.0000 I-13.6704 J37.9307 F100.00
G3 X150.3144 Y21.4624 Z-5.0000 I6.2216 J-6.3512 F100.00
G3 X150.2802 Y17.8261 Z-5.0000 I27.0982 J-2.0733 F100.00
G3 X147.3395 Y21.0771 Z-5.0000 I-5.4935 J-2.0136 F100.00
G3 X141.3468 Y20.7136 Z-5.0000 I-2.6587 J-5.7491 F100.00
G3 X137.9119 Y17.6325 Z-5.0000 I7.5381 J-11.8588 F100.00
G1 X140.2398 Y15.4801 Z-5.0000 F100.00
G2 X137.8685 Y13.5599 Z-5.0000 I-6.4664 J5.5614 F100.00
G2 X136.2911 Y13.4101 Z-5.0000 I-0.9444 J1.5640 F100.00
G2 X135.0950 Y14.4330 Z-5.0000 I1.2881 J2.7171 F100.00
G2 X134.1590 Y17.2076 Z-5.0000 I2.9838 J2.5517 F100.00
G3 X134.3968 Y19.5135 Z-5.0000 I-13.3602 J2.5430 F100.00
G3 X134.0994 Y23.8025 Z-5.0000 I-31.1795 J-0.0073 F100.00
G3 X131.9960 Y36.7380 Z-5.0000 I-460.5362 J-68.2474 F100.00
G3 X131.3447 Y40.4417 Z-5.0000 I-16.1927 J-0.9383 F100.00
G3 X128.4551 Y46.5694 Z-5.0000 I-22.8628 J-7.0363 F100.00
G2 X126.0815 Y50.7070 Z-5.0000 I19.5742 J13.9784 F100.00
G2 X125.4872 Y52.5180 Z-5.0000 I5.7236 J2.8813 F100.00
G2 X126.1481 Y52.8087 Z-5.0000 I1.2976 J-2.0540 F100.00
G2 X129.6804 Y53.4402 Z-5.0000 I4.6055 J-15.5656 F100.00
G3 X138.8148 Y55.6606 Z-5.0000 I-2.5676 J30.4611 F100.00
G2 X142.0789 Y56.9152 Z-5.0000 I7.0409 J-13.4449 F100.00
G3 X143.9526 Y57.2842 Z-5.0000 I-0.1879 J5.8967 F100.00
G3 X148.0180 Y59.1796 Z-5.0000 I-9.7018 J26.1167 F100.00
G2 X154.8333 Y62.0504 Z-5.0000 I59.8107 J-132.4672 F100.00
G2 X158.2208 Y63.1074 Z-5.0000 I7.5056 J-18.0965 F100.00
G3 X159.6548 Y63.2086 Z-5.0000 I-0.0481 J10.8897 F100.00
G3 X160.9497 Y63.5536 Z-5.0000 I-0.5478 J4.6593 F100.00
G2 X162.1397 Y64.1127 Z-5.0000 I4.9443 J-8.9773 F100.00
G2 X170.4413 Y64.8788 Z-5.0000 I6.4618 J-24.6601 F100.00
G2 X176.1215 Y63.1498 Z-5.0000 I-0.8237 J-12.9008 F100.00
G2 X177.6568 Y61.8838 Z-5.0000 I-2.7994 J-4.9590 F100.00
G2 X178.2619 Y60.4488 Z-5.0000 I-3.3723 J-2.2669 F100.00
G0 X178.2619 Y60.4488 Z6.0000
G0 X175.1364 Y59.8315 Z6.0000
G0 X175.1364 Y59.8315 Z1.8300
G1 X175.1364 Y59.8315 Z-5.0000 F100.00
G2 X175.1665 Y59.3472 Z-5.0000 I-1.7935 J-0.3543 F100.00
G2 X173.4189 Y52.1473 Z-5.0000 I-21.0119 J1.2880 F100.00
G1 X173.5253 Y52.3870 Z-5.0000 F100.00
G1 X176.4478 Y51.1573 Z-5.0000 F100.00
G1 X173.5253 Y52.3870 Z-5.0000 F100.00
G3 X175.1665 Y59.3472 Z-5.0000 I-19.4135 J8.2510 F100.00
G3 X175.0966 Y59.9936 Z-5.0000 I-1.8235 J0.1300 F100.00
G3 X173.5616 Y60.9152 Z-5.0000 I-4.0054 J-4.9322 F100.00
G2 X174.3799 Y56.8054 Z-5.0000 I-6.9800 J-3.5261 F100.00
G2 X173.4189 Y52.1473 Z-5.0000 I-18.1030 J1.3067 F100.00
G3 X174.3799 Y56.8054 Z-5.0000 I-17.1420 J5.9648 F100.00
G3 X173.5616 Y60.9152 Z-5.0000 I-7.7983 J0.5837 F100.00
G2 X175.0966 Y59.9936 Z-5.0000 I-2.4703 J-5.8538 F100.00
G2 X175.1364 Y59.8315 Z-5.0000 I-1.7537 J-0.5164 F100.00
G0 X175.1364 Y59.8315 Z6.0000
G0 X171.0671 Y58.6816 Z6.0000
G0 X171.0671 Y58.6816 Z1.8300
G1 X171.0671 Y58.6816 Z-5.0000 F100.00
G3 X169.5883 Y60.7104 Z-5.0000 I-3.4802 J-0.9834 F100.00
G3 X167.3711 Y61.5573 Z-5.0000 I-3.2404 J-5.1578 F100.00
G3 X163.4001 Y62.0401 Z-5.0000 I-5.2873 J-26.9198 F100.00
G3 X159.7844 Y62.0273 Z-5.0000 I-1.7405 J-19.0688 F100.00
G3 X158.9170 Y61.8905 Z-5.0000 I1.5821 J-12.8478 F100.00
G3 X156.0542 Y60.5422 Z-5.0000 I0.9301 J-5.6884 F100.00
G2 X155.0809 Y59.8278 Z-5.0000 I-4.2220 J4.7316 F100.00
G2 X150.8206 Y58.3475 Z-5.0000 I-7.8725 J15.7866 F100.00
G3 X141.8194 Y54.5779 Z-5.0000 I6.5327 J-28.2306 F100.00
G2 X139.4815 Y53.5043 Z-5.0000 I-5.5127 J8.9219 F100.00
G3 X135.8596 Y52.4214 Z-5.0000 I0.2173 J-7.3260 F100.00
G3 X133.1006 Y50.2457 Z-5.0000 I5.7656 J-10.1478 F100.00
G3 X132.2981 Y47.6972 Z-5.0000 I2.1734 J-2.0850 F100.00
G3 X133.5694 Y43.2725 Z-5.0000 I23.1083 J4.2442 F100.00
G2 X137.0828 Y33.4371 Z-5.0000 I-242.9754 J-92.3416 F100.00
G2 X138.2041 Y29.2382 Z-5.0000 I-27.3477 J-9.5519 F100.00
G3 X138.3803 Y27.5492 Z-5.0000 I8.5696 J0.0406 F100.00
G3 X140.5539 Y24.9905 Z-5.0000 I3.3068 J0.6066 F100.00
G3 X143.8208 Y25.1365 Z-5.0000 I1.4076 J5.1272 F100.00
G3 X157.6235 Y34.0937 Z-5.0000 I-12.6635 J34.6273 F100.00
G3 X165.2567 Y43.0653 Z-5.0000 I-54.1012 J53.7633 F100.00
G3 X170.7400 Y54.2407 Z-5.0000 I-28.1674 J20.7536 F100.00
G3 X171.2017 Y57.8070 Z-5.0000 I-10.7475 J3.2043 F100.00
G3 X171.0671 Y58.6816 Z-5.0000 I-3.6148 J-0.1087 F100.00
G0 X171.0671 Y58.6816 Z6.0000
G0 X159.7844 Y62.0273 Z6.0000
G0 X159.7844 Y62.0273 Z1.8300
G1 X159.7844 Y62.0273 Z-5.0000 F100.00
G1 X159.6548 Y63.2086 Z-5.0000 F100.00
G1 X159.7844 Y62.0273 Z-5.0000 F100.00
G0 X159.7844 Y62.0273 Z6.0000
G0 X194.7263 Y-0.6250 Z6.0000
G0 X194.7263 Y-0.6250 Z1.8300
G1 X194.7263 Y-0.6250 Z-5.0000 F100.00
G2 X196.0159 Y-1.4782 Z-5.0000 I-3.4935 J-6.6818 F100.00
G3 X194.7263 Y-0.6250 Z-5.0000 I-4.7832 J-5.8286 F100.00
G2 X196.6068 Y-3.8923 Z-5.0000 I-7.1247 J-6.2756 F100.00
G3 X194.7263 Y-0.6250 Z-5.0000 I-9.0052 J-3.0083 F100.00
G0 X194.7263 Y-0.6250 Z6.0000
G0 X196.0159 Y-1.4782 Z6.0000
G0 X196.0159 Y-1.4782 Z1.8300
G1 X196.0159 Y-1.4782 Z-5.0000 F100.00
G2 X196.5344 Y-2.1917 Z-5.0000 I-0.6119 J-0.9897 F100.00
G2 X196.6068 Y-3.8923 Z-5.0000 I-12.3379 J-1.3775 F100.00
G1 X196.6015 Y-3.4035 Z-5.0000 F100.00
G1 X199.7707 Y-3.3144 Z-5.0000 F100.00
G1 X196.6015 Y-3.4035 Z-5.0000 F100.00
G3 X196.5346 Y-2.1923 Z-5.0000 I-10.6859 J0.0170 F100.00
G3 X196.0159 Y-1.4782 Z-5.0000 I-1.1346 J-0.2786 F100.00
G0 X196.0159 Y-1.4782 Z6.0000
G0 X175.2270 Y-30.5512 Z6.0000
G0 X175.2270 Y-30.5512 Z1.8300
G1 X175.2270 Y-30.5512 Z-5.0000 F100.00
G2 X177.3451 Y-32.4596 Z-5.0000 I-7.3789 J-10.3193 F100.00
G3 X174.8111 Y-30.2661 Z-5.0000 I-9.4970 J-8.4109 F100.00
G3 X169.2792 Y-26.9802 Z-5.0000 I-25.4225 J-36.4998 F100.00
G2 X174.8111 Y-30.2661 Z-5.0000 I-19.8906 J-39.7857 F100.00
G2 X175.2270 Y-30.5512 Z-5.0000 I-6.9630 J-10.6044 F100.00
G0 X175.2270 Y-30.5512 Z6.0000
G0 X173.5358 Y-31.8474 Z6.0000
G0 X173.5358 Y-31.8474 Z1.8300
G1 X173.5358 Y-31.8474 Z-5.0000 F100.00
G3 X169.2792 Y-26.9802 Z-5.0000 I-39.7269 J-30.4485 F100.00
G2 X173.7770 Y-32.1647 Z-5.0000 I-35.4702 J-35.3156 F100.00
G3 X173.5358 Y-31.8474 Z-5.0000 I-39.9681 J-30.1311 F100.00
G0 X173.5358 Y-31.8474 Z6.0000
G0 X146.5077 Y-17.4191 Z6.0000
G0 X146.5077 Y-17.4191 Z1.8300
G1 X146.5077 Y-17.4191 Z-5.0000 F100.00
G3 X145.7531 Y-17.9701 Z-5.0000 I6.8700 J-10.2021 F100.00
G3 X145.6418 Y-18.0618 Z-5.0000 I15.3392 J-18.7092 F100.00
G3 X146.1438 Y-16.2184 Z-5.0000 I-26.7430 J8.2719 F100.00
G3 X146.5077 Y-17.4191 Z-5.0000 I6.2370 J1.2350 F100.00
G0 X146.5077 Y-17.4191 Z6.0000
G0 X189.6569 Y-64.8930 Z6.0000
G0 X189.6569 Y-64.8930 Z1.8300
G1 X189.6569 Y-64.8930 Z-5.0000 F100.00
G2 X183.8522 Y-70.1295 Z-5.0000 I-9.1489 J4.3060 F100.00
G3 X189.6569 Y-64.8930 Z-5.0000 I-3.3442 J9.5426 F100.00
G0 X189.6569 Y-64.8930 Z6.0000
G0 X189.6569 Y-64.8914 Z6.0000
G0 X189.6569 Y-64.8914 Z1.0000
G1 X189.6569 Y-64.8914 Z-5.0000 F100.00
G2 X183.8769 Y-70.1215 Z-5.0000 I-9.1429 J4.2953 F100.00
G2 X182.2953 Y-70.3627 Z-5.0000 I-1.6224 J5.3320 F100.00
G3 X185.9166 Y-74.5004 Z-5.0000 I23.6809 J17.0719 F100.00
G3 X186.3199 Y-73.9782 Z-5.0000 I-1.4170 J1.5112 F100.00
G1 X189.0401 Y-75.6092 Z-5.0000 F100.00
G1 X188.6795 Y-76.1688 Z-5.0000 F100.00
G2 X186.7500 Y-77.9222 Z-5.0000 I-6.4399 J5.1479 F100.00
G2 X185.9869 Y-78.1954 Z-5.0000 I-0.9219 J1.3733 F100.00
G2 X185.6472 Y-78.1322 Z-5.0000 I0.0192 J1.0488 F100.00
G2 X183.8159 Y-76.8766 Z-5.0000 I2.5450 J5.6753 F100.00
G2 X179.7092 Y-72.1991 Z-5.0000 I22.2170 J23.6472 F100.00
G2 X172.6403 Y-59.9867 Z-5.0000 I55.8588 J40.4849 F100.00
G2 X170.3754 Y-54.1827 Z-5.0000 I30.7388 J15.3388 F100.00
G2 X171.2606 Y-55.2754 Z-5.0000 I-12.5741 J-11.0907 F100.00
G3 X176.8077 Y-62.2697 Z-5.0000 I79.9405 J57.7035 F100.00
G2 X179.3180 Y-65.1158 Z-5.0000 I-157.8082 J-141.7219 F100.00
G3 X180.7488 Y-66.5870 Z-5.0000 I10.3675 J8.6512 F100.00
G3 X182.9602 Y-67.0862 Z-5.0000 I1.5318 J1.6383 F100.00
G3 X187.1365 Y-62.6571 Z-5.0000 I-2.4648 J6.5076 F100.00
G3 X189.5319 Y-52.1329 Z-5.0000 I-164.7863 J43.0417 F100.00
G2 X191.5648 Y-42.7318 Z-5.0000 I135.5005 J-24.3805 F100.00
G3 X192.1028 Y-40.2949 Z-5.0000 I-7.4848 J2.9304 F100.00
G3 X192.4220 Y-36.4733 Z-5.0000 I-78.9177 J8.5153 F100.00
G3 X192.8790 Y-28.8936 Z-5.0000 I-385.5719 J27.0522 F100.00
G2 X193.7414 Y-20.9264 Z-5.0000 I77.6569 J-4.3752 F100.00
G3 X194.4333 Y-11.3662 Z-5.0000 I-54.7373 J8.7668 F100.00
G3 X193.7742 Y-5.4378 Z-5.0000 I-22.5463 J0.4943 F100.00
G3 X192.3276 Y-2.7116 Z-5.0000 I-6.3652 J-1.6307 F100.00
G3 X188.1508 Y-0.4898 Z-5.0000 I-8.2719 J-10.5136 F100.00
G3 X177.4637 Y1.4033 Z-5.0000 I-11.9687 J-36.4546 F100.00
G3 X170.5059 Y0.5979 Z-5.0000 I-0.9795 J-21.9953 F100.00
G3 X162.8870 Y-1.7175 Z-5.0000 I112.0659 J-382.4490 F100.00
G3 X160.6824 Y-2.4262 Z-5.0000 I16.9660 J-56.5635 F100.00
G3 X154.7575 Y-5.1246 Z-5.0000 I8.8258 J-27.2323 F100.00
G3 X151.8747 Y-7.9875 Z-5.0000 I4.1379 J-7.0494 F100.00
G2 X150.4823 Y-11.0153 Z-5.0000 I-247.3200 J111.9037 F100.00
G3 X149.5233 Y-13.0624 Z-5.0000 I10.6009 J-6.2140 F100.00
G3 X149.2323 Y-14.2132 Z-5.0000 I5.9559 J-2.1184 F100.00
G3 X150.6368 Y-17.6130 Z-5.0000 I3.2075 J-0.6649 F100.00
G3 X153.4625 Y-18.3019 Z-5.0000 I2.5742 J4.4188 F100.00
G2 X155.6992 Y-18.6887 Z-5.0000 I-0.0233 J-6.7961 F100.00
G3 X161.6585 Y-20.5734 Z-5.0000 I16.0386 J40.3489 F100.00
G2 X167.6253 Y-22.6504 Z-5.0000 I-6.1963 J-27.4100 F100.00
G2 X176.9076 Y-27.8691 Z-5.0000 I-22.3050 J-50.5375 F100.00
G2 X180.9821 Y-32.0125 Z-5.0000 I-8.6878 J-12.6184 F100.00
G2 X181.6303 Y-34.3449 Z-5.0000 I-2.9089 J-2.0646 F100.00
G2 X180.5160 Y-37.0545 Z-5.0000 I-5.6628 J0.7450 F100.00
G1 X177.9230 Y-35.2278 Z-5.0000 F100.00
G3 X178.4707 Y-34.0378 Z-5.0000 I-2.0416 J1.6607 F100.00
G3 X177.5639 Y-32.7099 Z-5.0000 I-4.5690 J-2.1465 F100.00
G3 X174.1923 Y-29.8358 Z-5.0000 I-12.0226 J-10.6893 F100.00
G3 X169.2786 Y-26.9810 Z-5.0000 I-26.0342 J-39.1538 F100.00
G2 X175.0386 Y-30.4301 Z-5.0000 I-19.2172 J-38.6265 F100.00
G2 X178.2947 Y-33.6974 Z-5.0000 I-6.8730 J-10.1057 F100.00
G2 X178.4549 Y-34.1424 Z-5.0000 I-0.4852 J-0.4259 F100.00
G2 X177.7071 Y-35.5134 Z-5.0000 I-3.2908 J0.9055 F100.00
G1 X177.9230 Y-35.2278 Z-5.0000 F100.00
G1 X180.5160 Y-37.0545 Z-5.0000 F100.00
G2 X179.1348 Y-38.5144 Z-5.0000 I-4.6133 J2.9812 F100.00
G2 X178.0464 Y-38.8073 Z-5.0000 I-0.9012 J1.1798 F100.00
G3 X174.4350 Y-38.1034 Z-5.0000 I-66.0238 J-329.1200 F100.00
G2 X173.4387 Y-37.7542 Z-5.0000 I0.1169 J1.9292 F100.00
G2 X172.8725 Y-36.7833 Z-5.0000 I1.3346 J1.4288 F100.00
G3 X170.8848 Y-33.5864 Z-5.0000 I-15.5022 J-7.4225 F100.00
G3 X166.0409 Y-28.2226 Z-5.0000 I-43.4479 J-34.3670 F100.00
G3 X161.0923 Y-24.4709 Z-5.0000 I-15.3933 J-15.1650 F100.00
G2 X155.8388 Y-21.3599 Z-5.0000 I9.9911 J22.8631 F100.00
G3 X151.5213 Y-19.3501 Z-5.0000 I-5.4928 J-6.1572 F100.00
G3 X147.7439 Y-20.4385 Z-5.0000 I-0.6865 J-4.7165 F100.00
G1 X145.6780 Y-18.0342 Z-5.0000 F100.00
G2 X146.5165 Y-17.4267 Z-5.0000 I4.5618 J-5.4147 F100.00
G2 X146.1469 Y-16.2082 Z-5.0000 I4.9036 J2.1526 F100.00
G2 X145.6347 Y-18.0717 Z-5.0000 I-25.4605 J5.9963 F100.00
G2 X145.6780 Y-18.0342 Z-5.0000 I3.4906 J-3.9792 F100.00
G1 X147.7439 Y-20.4385 Z-5.0000 F100.00
G3 X145.5675 Y-22.9872 Z-5.0000 I6.3400 J-7.6174 F100.00
G2 X142.1189 Y-29.0044 Z-5.0000 I-39.4151 J18.5930 F100.00
G2 X133.8664 Y-39.3673 Z-5.0000 I-82.8025 J57.4725 F100.00
G2 X130.9178 Y-41.8683 Z-5.0000 I-10.3966 J9.2686 F100.00
G2 X128.1955 Y-42.3504 Z-5.0000 I-1.9292 J2.9666 F100.00
G1 X128.2259 Y-42.2358 Z-5.0000 F100.00
G2 X129.0546 Y-40.9847 Z-5.0000 I3.6959 J-1.5481 F100.00
G3 X133.9038 Y-35.1702 Z-5.0000 I-26.4314 J26.9727 F100.00
G3 X138.6567 Y-27.3267 Z-5.0000 I-69.4263 J47.4318 F100.00
G3 X139.7480 Y-25.1886 Z-5.0000 I-17.2678 J10.1614 F100.00
G3 X143.1272 Y-15.2131 Z-5.0000 I-62.1942 J26.6283 F100.00
G3 X143.3093 Y-12.0747 Z-5.0000 I-7.2333 J1.9941 F100.00
G3 X142.0312 Y-9.7005 Z-5.0000 I-3.6809 J-0.4504 F100.00
G3 X139.1067 Y-9.1389 Z-5.0000 I-2.0549 J-2.8053 F100.00
G3 X135.8266 Y-10.5684 Z-5.0000 I2.3498 J-9.8700 F100.00
G2 X132.0996 Y-11.9095 Z-5.0000 I-5.0939 J8.3066 F100.00
G3 X130.5097 Y-12.0149 Z-5.0000 I-0.0647 J-11.0744 F100.00
G3 X127.6183 Y-13.6153 Z-5.0000 I0.4519 J-4.2287 F100.00
G2 X127.1167 Y-13.9307 Z-5.0000 I-1.3174 J1.5381 F100.00
G2 X124.0908 Y-15.3223 Z-5.0000 I-11.9985 J22.1048 F100.00
G2 X119.9182 Y-16.5321 Z-5.0000 I-7.0539 J16.5289 F100.00
G3 X117.5235 Y-17.0689 Z-5.0000 I-0.2404 J-4.5369 F100.00
G3 X115.8656 Y-19.6466 Z-5.0000 I1.9991 J-3.1078 F100.00
G1 X112.7499 Y-19.0623 Z-5.0000 F100.00
G2 X113.0329 Y-18.0017 Z-5.0000 I8.2582 J-1.6355 F100.00
G2 X111.8934 Y-18.0774 Z-5.0000 I-1.9011 J20.0127 F100.00
G2 X112.7045 Y-19.3154 Z-5.0000 I-17.2225 J-12.1681 F100.00
G2 X112.7499 Y-19.0623 Z-5.0000 I19.2772 J-3.3276 F100.00
G1 X115.8656 Y-19.6466 Z-5.0000 F100.00
G3 X115.8042 Y-22.3600 Z-5.0000 I7.9894 J-1.5382 F100.00
G3 X115.9172 Y-22.8313 Z-5.0000 I1.5797 J0.1295 F100.00
G1 X118.4340 Y-28.9754 Z-5.0000 F100.00
G2 X118.7621 Y-30.0029 Z-5.0000 I-10.2398 J-3.8355 F100.00
G2 X119.6464 Y-35.0637 Z-5.0000 I-32.4226 J-8.2730 F100.00
G2 X120.5945 Y-52.0540 Z-5.0000 I-190.0538 J-19.1279 F100.00
G2 X120.5309 Y-56.3872 Z-5.0000 I-71.8385 J-1.1123 F100.00
G2 X120.1553 Y-59.4138 Z-5.0000 I-13.2831 J0.1122 F100.00
G2 X117.5796 Y-59.3955 Z-5.0000 I-1.2378 J7.0762 F100.00
G2 X114.4656 Y-58.7937 Z-5.0000 I1.0812 J13.9507 F100.00
G1 X114.3720 Y-58.2690 Z-5.0000 F100.00
G2 X114.1370 Y-51.6704 Z-5.0000 I47.3139 J4.9887 F100.00
G2 X114.7636 Y-44.5313 Z-5.0000 I38.7994 J0.1914 F100.00
G3 X115.1421 Y-41.7731 Z-5.0000 I-12.6035 J3.1345 F100.00
G3 X113.5627 Y-29.1840 Z-5.0000 I-42.0660 J1.1161 F100.00
G3 X108.2447 Y-18.4573 Z-5.0000 I-29.8347 J-8.1094 F100.00
G2 X107.4742 Y-17.5637 Z-5.0000 I38.6734 J34.1295 F100.00
G2 X106.9771 Y-16.1859 Z-5.0000 I1.7342 J1.4042 F100.00
G3 X107.0724 Y-15.3741 Z-5.0000 I-5.7222 J1.0831 F100.00
G2 X108.0198 Y-15.2002 Z-5.0000 I1.2547 J-4.1695 F100.00
G2 X112.4072 Y-14.8735 Z-5.0000 I5.6869 J-46.7368 F100.00
G3 X122.7845 Y-12.6834 Z-5.0000 I-1.9020 J34.6923 F100.00
G3 X126.1676 Y-11.1945 Z-5.0000 I-63.8215 J149.6120 F100.00
G2 X129.1490 Y-10.1243 Z-5.0000 I7.8420 J-17.1572 F100.00
G3 X130.9716 Y-9.8191 Z-5.0000 I-0.4095 J8.0401 F100.00
G3 X135.4404 Y-8.2964 Z-5.0000 I-10.5114 J38.1669 F100.00
G2 X141.7319 Y-6.2038 Z-5.0000 I23.5959 J-60.4383 F100.00
G3 X144.9858 Y-5.1359 Z-5.0000 I-2.2465 J12.3369 F100.00
G3 X147.0083 Y-3.0026 Z-5.0000 I-1.9430 J3.8675 F100.00
G3 X147.5195 Y-0.7458 Z-5.0000 I-7.6912 J2.9286 F100.00
G3 X148.0215 Y7.3690 Z-5.0000 I-76.0261 J8.7765 F100.00
G3 X147.8679 Y14.1620 Z-5.0000 I-53.1676 J2.1955 F100.00
G3 X147.2971 Y16.7434 Z-5.0000 I-9.8074 J-0.8147 F100.00
G3 X144.6967 Y18.5068 Z-5.0000 I-2.5274 J-0.9279 F100.00
G3 X142.4135 Y17.6250 Z-5.0000 I0.2289 J-3.9894 F100.00
G3 X140.0807 Y15.3105 Z-5.0000 I9.4592 J-11.8671 F100.00
G1 X137.7845 Y17.4976 Z-5.0000 F100.00
G2 X140.8765 Y20.4152 Z-5.0000 I12.7179 J-10.3807 F100.00
G2 X146.8429 Y21.2935 Z-5.0000 I3.8125 J-5.1943 F100.00
G2 X150.2826 Y17.8114 Z-5.0000 I-2.0405 J-5.4556 F100.00
G2 X150.3241 Y21.5173 Z-5.0000 I22.1667 J1.6051 F100.00
G2 X152.7933 Y26.0733 Z-5.0000 I8.8280 J-1.8373 F100.00
G2 X144.5688 Y22.0510 Z-5.0000 I-21.5028 J33.5475 F100.00
G2 X139.6179 Y21.9633 Z-5.0000 I-2.6167 J7.9343 F100.00
G2 X137.3523 Y23.2731 Z-5.0000 I1.9789 J6.0376 F100.00
G2 X137.4576 Y17.8576 Z-5.0000 I-23.9535 J-3.1747 F100.00
G3 X137.3371 Y17.0570 Z-5.0000 I18.7390 J-3.2310 F100.00
G3 X137.7845 Y17.4976 Z-5.0000 I-3.5096 J4.0125 F100.00
G1 X140.0807 Y15.3105 Z-5.0000 F100.00
G2 X137.8064 Y13.5308 Z-5.0000 I-6.1162 J5.4727 F100.00
G2 X136.2225 Y13.4437 Z-5.0000 I-0.8784 J1.5292 F100.00
G2 X135.0958 Y14.4322 Z-5.0000 I1.5339 J2.8846 F100.00
G2 X134.1589 Y17.2070 Z-5.0000 I2.9702 J2.5485 F100.00
G3 X134.3384 Y18.4539 Z-5.0000 I-24.3701 J4.1455 F100.00
G3 X134.0426 Y24.2400 Z-5.0000 I-28.1227 J1.4629 F100.00
G3 X131.9963 Y36.7365 Z-5.0000 I-567.9263 J-86.5818 F100.00
G3 X131.6266 Y39.3602 Z-5.0000 I-15.4197 J-0.8350 F100.00
G3 X128.1069 Y47.1024 Z-5.0000 I-23.0017 J-5.7856 F100.00
G2 X125.7483 Y51.5188 Z-5.0000 I19.6041 J13.3076 F100.00
G2 X125.4837 Y52.5208 Z-5.0000 I3.3038 J1.4086 F100.00
G2 X126.0873 Y52.7882 Z-5.0000 I1.4298 J-2.4122 F100.00
G2 X129.2429 Y53.3942 Z-5.0000 I4.3887 J-14.3352 F100.00
G3 X131.8244 Y53.7077 Z-5.0000 I-1.4371 J22.6156 F100.00
G3 X140.1658 Y56.2697 Z-5.0000 I-4.0453 J28.0307 F100.00
G2 X142.1555 Y56.9263 Z-5.0000 I4.0028 J-8.7876 F100.00
G3 X144.0212 Y57.3074 Z-5.0000 I-0.1542 J5.5116 F100.00
G3 X148.0151 Y59.1784 Z-5.0000 I-10.0707 J26.6959 F100.00
G2 X153.7626 Y61.6330 Z-5.0000 I67.8670 J-150.9560 F100.00
G2 X158.0791 Y63.0850 Z-5.0000 I10.8015 J-24.9684 F100.00
G3 X159.2781 Y63.1615 Z-5.0000 I-1.2795 J29.4916 F100.00
G3 X160.7956 Y63.4888 Z-5.0000 I-0.3720 J5.4062 F100.00
G2 X161.9254 Y64.0411 Z-5.0000 I23.4174 J-46.4721 F100.00
G2 X165.2018 Y64.7215 Z-5.0000 I4.9695 J-15.7017 F100.00
G2 X172.0872 Y64.6567 Z-5.0000 I3.2302 J-22.6206 F100.00
G2 X176.8805 Y62.6241 Z-5.0000 I-1.8665 J-11.0696 F100.00
G2 X177.6302 Y61.9203 Z-5.0000 I-1.6898 J-2.5512 F100.00
G2 X178.3370 Y59.5267 Z-5.0000 I-3.1867 J-2.2422 F100.00
G2 X176.5496 Y51.4026 Z-5.0000 I-23.6543 J0.9457 F100.00
G1 X173.6147 Y52.6024 Z-5.0000 F100.00
G1 X173.4220 Y52.1558 Z-5.0000 F100.00
G3 X174.3382 Y56.2141 Z-5.0000 I-18.7387 J6.3631 F100.00
G3 X173.5578 Y60.9184 Z-5.0000 I-8.2361 J1.0506 F100.00
G2 X175.1007 Y59.9823 Z-5.0000 I-2.4385 J-5.7586 F100.00
G2 X175.1645 Y59.4479 Z-5.0000 I-1.7088 J-0.4749 F100.00
G2 X173.4220 Y52.1558 Z-5.0000 I-20.7419 J1.1021 F100.00
G3 X174.3382 Y56.2141 Z-5.0000 I-18.7387 J6.3631 F100.00
G3 X173.5578 Y60.9184 Z-5.0000 I-8.2361 J1.0506 F100.00
G2 X175.1007 Y59.9823 Z-5.0000 I-2.4385 J-5.7586 F100.00
G2 X175.1645 Y59.4479 Z-5.0000 I-1.7088 J-0.4749 F100.00
G2 X173.6147 Y52.6024 Z-5.0000 I-20.6838 J1.0843 F100.00
G1 X176.5496 Y51.4026 Z-5.0000 F100.00
G2 X171.5253 Y43.3081 Z-5.0000 I-27.7619 J11.6255 F100.00
G3 X168.5106 Y38.6904 Z-5.0000 I11.2958 J-10.6673 F100.00
G3 X168.5454 Y32.4420 Z-5.0000 I7.3688 J-3.0832 F100.00
G2 X168.7212 Y30.1660 Z-5.0000 I-2.0555 J-1.3035 F100.00
G2 X165.9032 Y27.6494 Z-5.0000 I-5.1234 J2.9010 F100.00
G2 X161.7628 Y26.4917 Z-5.0000 I-5.6380 J12.1808 F100.00
G3 X157.4806 Y25.4287 Z-5.0000 I1.6306 J-15.7248 F100.00
G3 X156.2119 Y24.7839 Z-5.0000 I3.5369 J-8.5304 F100.00
G3 X155.0330 Y23.8288 Z-5.0000 I2.1682 J-3.8814 F100.00
G3 X153.4401 Y20.9349 Z-5.0000 I4.0980 J-4.1409 F100.00
G3 X153.5712 Y15.2210 Z-5.0000 I54.9863 J-1.5973 F100.00
G3 X153.8534 Y12.2754 Z-5.0000 I61.2484 J4.3813 F100.00
G2 X154.0181 Y6.0246 Z-5.0000 I-43.2834 J-4.2685 F100.00
G3 X153.9455 Y4.0138 Z-5.0000 I13.7072 J-1.5018 F100.00
G3 X154.7576 Y1.2574 Z-5.0000 I4.8997 J-0.0543 F100.00
G3 X157.5089 Y0.1881 Z-5.0000 I2.2588 J1.7375 F100.00
G3 X159.9929 Y0.7171 Z-5.0000 I-1.1450 J11.4715 F100.00
G3 X169.0669 Y3.8929 Z-5.0000 I-32.2424 J106.6777 F100.00
G2 X172.5319 Y4.5391 Z-5.0000 I4.7361 J-15.7812 F100.00
G2 X184.9948 Y4.8315 Z-5.0000 I8.6676 J-103.6820 F100.00
G2 X191.1130 Y4.1688 Z-5.0000 I-0.6261 J-34.3500 F100.00
G2 X196.8122 Y1.8355 Z-5.0000 I-6.5098 J-24.0280 F100.00
G2 X199.1578 Y-0.2787 Z-5.0000 I-3.3100 J-6.0304 F100.00
G2 X199.5926 Y-1.3570 Z-5.0000 I-4.7390 J-2.5376 F100.00
G2 X199.7566 Y-2.8552 Z-5.0000 I-5.3821 J-1.3474 F100.00
G2 X199.6731 Y-9.5218 Z-5.0000 I-87.0093 J-2.2443 F100.00
G2 X198.3040 Y-32.9391 Z-5.0000 I-701.9205 J29.2885 F100.00
G2 X197.2422 Y-43.9604 Z-5.0000 I-169.9496 J10.8129 F100.00
G1 X195.9086 Y-51.6651 Z-5.0000 F100.00
G2 X194.4753 Y-58.5778 Z-5.0000 I-258.5311 J50.0021 F100.00
G2 X191.2151 Y-70.6278 Z-5.0000 I-113.4076 J24.2166 F100.00
G2 X189.0401 Y-75.6092 Z-5.0000 I-27.7844 J9.1660 F100.00
G1 X186.3199 Y-73.9782 Z-5.0000 F100.00
G3 X188.2210 Y-69.5857 Z-5.0000 I-23.0462 J12.5824 F100.00
G3 X189.6569 Y-64.8914 Z-5.0000 I-69.9695 J23.9680 F100.00
G0 X189.6569 Y-64.8914 Z6.0000
G0 X177.7071 Y-35.5134 Z6.0000
G0 X177.7071 Y-35.5134 Z1.0000
G1 X177.7071 Y-35.5134 Z-5.0000 F100.00
G1 X175.5803 Y-35.0973 Z-5.0000 F100.00
G3 X174.1159 Y-32.6411 Z-5.0000 I-17.3319 J-8.6689 F100.00
G3 X169.2786 Y-26.9810 Z-5.0000 I-37.5797 J-27.2195 F100.00
G2 X174.1159 Y-32.6411 Z-5.0000 I-32.7423 J-32.8797 F100.00
G2 X175.5803 Y-35.0973 Z-5.0000 I-15.8676 J-11.1251 F100.00
G1 X177.7071 Y-35.5134 Z-5.0000 F100.00
G0 X177.7071 Y-35.5134 Z6.0000
G0 X149.5233 Y-13.0624 Z6.0000
G0 X149.5233 Y-13.0624 Z1.0000
G1 X149.5233 Y-13.0624 Z-5.0000 F100.00
G1 X146.5206 Y-12.0462 Z-5.0000 F100.00
G3 X146.5068 Y-12.0875 Z-5.0000 I7.5210 J-2.5492 F100.00
G3 X145.2220 Y-8.5054 Z-5.0000 I-7.4327 J-0.6445 F100.00
G3 X146.4035 Y-7.9712 Z-5.0000 I-3.0151 J8.2418 F100.00
G3 X150.2545 Y-3.2728 Z-5.0000 I-3.2406 J6.5836 F100.00
G3 X150.9741 Y2.2272 Z-5.0000 I-27.8255 J6.4378 F100.00
G3 X153.7130 Y-2.0471 Z-5.0000 I6.4519 J1.1195 F100.00
G1 X153.1020 Y-2.4213 Z-5.0000 F100.00
G3 X149.0586 Y-6.5284 Z-5.0000 I5.8180 J-9.7715 F100.00
G2 X147.6585 Y-9.5741 Z-5.0000 I-444.4546 J202.4647 F100.00
G3 X146.5206 Y-12.0462 Z-5.0000 I12.9901 J-7.4773 F100.00
G1 X149.5233 Y-13.0624 Z-5.0000 F100.00
G0 X149.5233 Y-13.0624 Z6.0000
G0 X142.8210 Y24.8666 Z6.0000
G0 X142.8210 Y24.8666 Z1.0000
G1 X142.8210 Y24.8666 Z-5.0000 F100.00
G3 X143.5741 Y25.0613 Z-5.0000 I-0.8683 J4.9138 F100.00
G3 X156.2598 Y32.7475 Z-5.0000 I-12.3640 J34.7174 F100.00
G3 X164.5155 Y42.0487 Z-5.0000 I-57.3755 J59.2406 F100.00
G3 X169.3180 Y50.2284 Z-5.0000 I-30.0699 J23.1547 F100.00
G3 X171.1096 Y55.9329 Z-5.0000 I-24.4561 J10.8145 F100.00
G3 X170.9196 Y59.0916 Z-5.0000 I-6.2199 J1.2110 F100.00
G3 X168.1662 Y61.3555 Z-5.0000 I-3.6591 J-1.6441 F100.00
G3 X164.5497 Y61.9530 Z-5.0000 I-4.9079 J-18.4617 F100.00
G3 X159.4377 Y61.9739 Z-5.0000 I-2.6466 J-22.1789 F100.00
G1 X159.1699 Y61.9379 Z-5.0000 F100.00
G3 X156.2883 Y60.7508 Z-5.0000 I0.7854 J-5.9977 F100.00
G2 X154.8380 Y59.6982 Z-5.0000 I-5.0127 J5.3810 F100.00
G2 X150.8147 Y58.3460 Z-5.0000 I-7.5323 J15.7503 F100.00
G3 X144.6230 Y56.1497 Z-5.0000 I6.7886 J-28.9639 F100.00
G3 X141.4558 Y54.3770 Z-5.0000 I36.8643 J-69.5795 F100.00
G2 X139.4089 Y53.4902 Z-5.0000 I-4.6067 J7.8278 F100.00
G3 X137.6638 Y53.2209 Z-5.0000 I0.1562 J-6.7997 F100.00
G3 X133.5424 Y50.7117 Z-5.0000 I3.8499 J-10.9627 F100.00
G3 X132.3203 Y48.7677 Z-5.0000 I2.6006 J-2.9910 F100.00
G3 X132.5564 Y46.4117 Z-5.0000 I5.4177 J-0.6470 F100.00
G3 X134.1490 Y41.7328 Z-5.0000 I41.2796 J11.4402 F100.00
G2 X137.6951 Y31.4339 Z-5.0000 I-151.7682 J-58.0170 F100.00
G2 X138.2117 Y29.1707 Z-5.0000 I-15.5986 J-4.7506 F100.00
G3 X138.3203 Y27.8330 Z-5.0000 I8.1869 J-0.0085 F100.00
G3 X140.6148 Y24.9732 Z-5.0000 I3.4481 J0.4162 F100.00
G3 X142.8210 Y24.8666 Z-5.0000 I1.3379 J4.8072 F100.00
G0 X142.8210 Y24.8666 Z6.0000
G0 X155.6372 Y28.0702 Z6.0000
G0 X155.6372 Y28.0702 Z1.0000
G1 X155.6372 Y28.0702 Z-5.0000 F100.00
G3 X158.3935 Y30.4032 Z-5.0000 I-22.2758 J29.1129 F100.00
G3 X164.8816 Y37.4006 Z-5.0000 I-62.1723 J64.1528 F100.00
G3 X165.6085 Y31.2447 Z-5.0000 I10.6491 J-1.8632 F100.00
G2 X164.5239 Y30.5044 Z-5.0000 I-2.4515 J2.4270 F100.00
G2 X161.2743 Y29.6241 Z-5.0000 I-4.3423 J9.5907 F100.00
G3 X156.1600 Y28.3105 Z-5.0000 I2.0365 J-18.5412 F100.00
G3 X155.6372 Y28.0702 Z-5.0000 I107.0236 J-233.5479 F100.00
G0 X155.6372 Y28.0702 Z6.0000
G0 X156.1600 Y28.3105 Z6.0000
G0 X156.1600 Y28.3105 Z1.0000
G1 X156.1600 Y28.3105 Z-5.0000 F100.00
G1 X157.4806 Y25.4287 Z-5.0000 F100.00
G1 X156.1600 Y28.3105 Z-5.0000 F100.00
G0 X156.1600 Y28.3105 Z6.0000
G0 X159.4377 Y61.9739 Z6.0000
G0 X159.4377 Y61.9739 Z1.0000
G1 X159.4377 Y61.9739 Z-5.0000 F100.00
G1 X159.2781 Y63.1615 Z-5.0000 F100.00
G1 X159.4377 Y61.9739 Z-5.0000 F100.00
G0 X159.4377 Y61.9739 Z6.0000
G0 X194.7224 Y-0.6210 Z6.0000
G0 X194.7224 Y-0.6210 Z1.0000
G1 X194.7224 Y-0.6210 Z-5.0000 F100.00
G2 X196.6027 Y-3.8778 Z-5.0000 I-7.1927 J-6.3239 F100.00
G3 X194.7224 Y-0.6210 Z-5.0000 I-9.0730 J-3.0670 F100.00
G1 X194.7224 Y-0.6210 Z-5.0000 F100.00
G2 X196.1265 Y-1.5749 Z-5.0000 I-3.2448 J-6.2869 F100.00
G2 X196.5376 Y-2.2032 Z-5.0000 I-0.5995 J-0.8408 F100.00
G2 X196.6027 Y-3.8778 Z-5.0000 I-13.3791 J-1.3590 F100.00
G1 X196.5879 Y-2.9637 Z-5.0000 F100.00
G1 X199.7566 Y-2.8552 Z-5.0000 F100.00
G1 X196.5879 Y-2.9637 Z-5.0000 F100.00
G3 X196.5376 Y-2.2032 Z-5.0000 I-9.8163 J-0.2684 F100.00
G3 X196.1265 Y-1.5749 Z-5.0000 I-1.0105 J-0.2125 F100.00
G3 X194.7224 Y-0.6210 Z-5.0000 I-4.6489 J-5.3330 F100.00
G0 X194.7224 Y-0.6210 Z6.0000
G0 X120.5945 Y-52.0540 Z6.0000
G0 X120.5945 Y-52.0540 Z1.0000
G1 X120.5945 Y-52.0540 Z-5.0000 F100.00
G1 X117.4245 Y-52.0855 Z-5.0000 F100.00
G2 X117.3667 Y-56.1528 Z-5.0000 I-67.4291 J-1.0753 F100.00
G2 X117.3727 Y-49.5997 Z-5.0000 I73.5021 J3.2092 F100.00
G1 X117.4245 Y-52.0855 Z-5.0000 F100.00
G1 X120.5945 Y-52.0540 Z-5.0000 F100.00
G0 Z6.0000
(Profile_Edges)
G0 Z6.0000
G0 X6.3111 Y264.0972
G0 Z4.0000
G1 X6.3111 Y264.0972 Z-5.3500 F150.00
G1 X6.3111 Y232.3472 Z-5.3500 F150.00
G1 X-6.3889 Y232.3472 Z-5.3500 F150.00
G1 X-6.3889 Y264.0972 Z-5.3500 F150.00
G1 X6.3111 Y264.0972 Z-5.3500 F150.00
G1 X6.3111 Y264.0972 Z-11.7000 F150.00
G1 X6.3111 Y232.3472 Z-11.7000 F150.00
G1 X-6.3889 Y232.3472 Z-11.7000 F150.00
G1 X-6.3889 Y264.0972 Z-11.7000 F150.00
G1 X6.3111 Y264.0972 Z-11.7000 F150.00
G1 X6.3111 Y264.0972 Z-18.0500 F150.00
G1 X6.3111 Y232.3472 Z-18.0500 F150.00
G1 X-6.3889 Y232.3472 Z-18.0500 F150.00
G1 X-6.3889 Y264.0972 Z-18.0500 F150.00
G1 X6.3111 Y264.0972 Z-18.0500 F150.00
G1 X6.3111 Y264.0972 Z-20.0000 F150.00
G1 X6.3111 Y232.3472 Z-20.0000 F150.00
G1 X-6.3889 Y232.3472 Z-20.0000 F150.00
G1 X-6.3889 Y264.0972 Z-20.0000 F150.00
G1 X6.3111 Y264.0972 Z-20.0000 F150.00
G0 Z6.0000
(Contour?)
G0 Z6.0000
G0 X141.2584 Y185.8607 Z6.0000
G0 X141.2584 Y185.8607 Z4.0000
G1 X141.2584 Y185.8607 Z-5.3500 F150.00
G2 X233.2902 Y8.6824 Z-5.3500 I-141.2311 J-185.8510 F150.00
G2 X77.4655 Y-220.2142 Z-5.3500 I-233.2654 J-8.6895 F150.00
G2 X77.4711 Y-240.3181 Z-5.3500 I-76.9416 J-10.0733 F150.00
G2 X-76.7921 Y-220.4503 Z-5.3500 I-77.1178 J10.0408 F150.00
G2 X-77.5269 Y220.1925 Z-5.3500 I76.7779 J220.4500 F150.00
G2 X-77.6013 Y237.5108 Z-5.3500 I77.2264 J8.9909 F150.00
G2 X8.6069 Y306.7009 Z-5.3500 I77.5620 J-8.3382 F150.00
G2 X77.4540 Y220.2186 Z-5.3500 I-8.6462 J-77.5282 F150.00
G2 X141.2584 Y185.8607 Z-5.3500 I-77.4267 J-220.2088 F150.00
G1 X141.2584 Y185.8607 Z-11.7000 F150.00
G2 X233.2902 Y8.6824 Z-11.7000 I-141.2311 J-185.8510 F150.00
G2 X159.5401 Y-170.4275 Z-11.7000 I-233.2654 J-8.6895 F150.00
G1 X158.2934 Y-171.5860 Z-10.0000 F150.00
G2 X125.2406 Y-197.0077 Z-10.0000 I-158.2685 J171.5789 F150.00
G1 X123.8011 Y-197.9154 Z-11.7000 F150.00
G2 X77.4655 Y-220.2142 Z-11.7000 I-123.7762 J197.9083 F150.00
G2 X77.4711 Y-240.3181 Z-11.7000 I-76.9416 J-10.0733 F150.00
G2 X12.9858 Y-307.0132 Z-11.7000 I-77.1178 J10.0408 F150.00
G1 X11.2888 Y-307.2734 Z-10.0000 F150.00
G2 X-29.7349 Y-301.9898 Z-10.0000 I-10.9356 J76.9960 F150.00
G1 X-31.3105 Y-301.3082 Z-11.7000 F150.00
G2 X-76.7921 Y-220.4503 Z-11.7000 I31.6638 J71.0309 F150.00
G2 X-232.3227 Y-22.9313 Z-11.7000 I76.7779 J220.4500 F150.00
G1 X-232.4837 Y-21.2371 Z-10.0000 F150.00
G2 X-232.5532 Y20.4612 Z-10.0000 I232.4695 J21.2368 F150.00
G1 X-232.3979 Y22.1559 Z-11.7000 F150.00
G2 X-77.5269 Y220.1925 Z-11.7000 I232.3837 J-22.1561 F150.00
G2 X-77.6013 Y237.5108 Z-11.7000 I77.2264 J8.9909 F150.00
G2 X-64.2403 Y273.4854 Z-11.7000 I77.5620 J-8.3382 F150.00
G1 X-63.2496 Y274.8874 Z-10.0000 F150.00
G2 X-30.9899 Y300.7788 Z-10.0000 I63.2103 J-45.7148 F150.00
G1 X-29.4067 Y301.4426 Z-11.7000 F150.00
G2 X8.6069 Y306.7009 Z-11.7000 I29.3674 J-72.2699 F150.00
G2 X77.4540 Y220.2186 Z-11.7000 I-8.6462 J-77.5282 F150.00
G2 X141.2584 Y185.8607 Z-11.7000 I-77.4267 J-220.2088 F150.00
G1 X141.2584 Y185.8607 Z-18.0500 F150.00
G2 X233.2902 Y8.6824 Z-18.0500 I-141.2311 J-185.8510 F150.00
G2 X164.1234 Y-166.0188 Z-18.0500 I-233.2654 J-8.6895 F150.00
G1 X158.2934 Y-171.5860 Z-10.0000 F150.00
G2 X125.2406 Y-197.0077 Z-10.0000 I-158.2685 J171.5789 F150.00
G1 X118.3638 Y-201.2138 Z-18.0500 F150.00
G2 X77.4655 Y-220.2142 Z-18.0500 I-118.3389 J201.2067 F150.00
G2 X77.4711 Y-240.3181 Z-18.0500 I-76.9416 J-10.0733 F150.00
G2 X19.2891 Y-305.7055 Z-18.0500 I-77.1178 J10.0408 F150.00
G1 X11.2888 Y-307.2734 Z-10.0000 F150.00
G2 X-29.7349 Y-301.9898 Z-10.0000 I-10.9356 J76.9960 F150.00
G1 X-37.0768 Y-298.4460 Z-18.0500 F150.00
G2 X-76.7921 Y-220.4503 Z-18.0500 I37.4300 J68.1687 F150.00
G2 X-231.6118 Y-29.2509 Z-18.0500 I76.7779 J220.4500 F150.00
G1 X-232.4837 Y-21.2371 Z-10.0000 F150.00
G2 X-232.5532 Y20.4612 Z-10.0000 I232.4695 J21.2368 F150.00
G1 X-231.7081 Y28.4779 Z-18.0500 F150.00
G2 X-77.5269 Y220.1925 Z-18.0500 I231.6939 J-28.4781 F150.00
G2 X-77.6013 Y237.5108 Z-18.0500 I77.2264 J8.9909 F150.00
G2 X-67.6751 Y268.0415 Z-18.0500 I77.5620 J-8.3382 F150.00
G1 X-63.2496 Y274.8874 Z-10.0000 F150.00
G2 X-30.9899 Y300.7788 Z-10.0000 I63.2103 J-45.7148 F150.00
G1 X-23.3485 Y303.6177 Z-18.0500 F150.00
G2 X8.6069 Y306.7009 Z-18.0500 I23.3092 J-74.4451 F150.00
G2 X77.4540 Y220.2186 Z-18.0500 I-8.6462 J-77.5282 F150.00
G2 X141.2584 Y185.8607 Z-18.0500 I-77.4267 J-220.2088 F150.00
G1 X141.2584 Y185.8607 Z-21.0000 F150.00
G2 X233.2902 Y8.6824 Z-21.0000 I-141.2311 J-185.8510 F150.00
G2 X166.2127 Y-163.9273 Z-21.0000 I-233.2654 J-8.6895 F150.00
G1 X158.2934 Y-171.5860 Z-10.0000 F150.00
G2 X125.2406 Y-197.0077 Z-10.0000 I-158.2685 J171.5789 F150.00
G1 X115.8061 Y-202.6963 Z-21.0000 F150.00
G2 X77.4655 Y-220.2142 Z-21.0000 I-115.7813 J202.6892 F150.00
G2 X77.4711 Y-240.3181 Z-21.0000 I-76.9416 J-10.0733 F150.00
G2 X22.1917 Y-304.9169 Z-21.0000 I-77.1178 J10.0408 F150.00
G1 X11.2888 Y-307.2734 Z-10.0000 F150.00
G2 X-29.7349 Y-301.9898 Z-10.0000 I-10.9356 J76.9960 F150.00
G1 X-39.6848 Y-296.9477 Z-21.0000 F150.00
G2 X-76.7921 Y-220.4503 Z-21.0000 I40.0381 J66.6703 F150.00
G2 X-231.2228 Y-32.1815 Z-21.0000 I76.7779 J220.4500 F150.00
G1 X-232.4837 Y-21.2371 Z-10.0000 F150.00
G2 X-232.5532 Y20.4612 Z-10.0000 I232.4695 J21.2368 F150.00
G1 X-231.3289 Y31.4097 Z-21.0000 F150.00
G2 X-77.5269 Y220.1925 Z-21.0000 I231.3147 J-31.4100 F150.00
G2 X-77.6013 Y237.5108 Z-21.0000 I77.2264 J8.9909 F150.00
G2 X-69.1231 Y265.4055 Z-21.0000 I77.5620 J-8.3382 F150.00
G1 X-63.2496 Y274.8874 Z-10.0000 F150.00
G2 X-30.9899 Y300.7788 Z-10.0000 I63.2103 J-45.7148 F150.00
G1 X-20.4616 Y304.4609 Z-21.0000 F150.00
G2 X8.6069 Y306.7009 Z-21.0000 I20.4223 J-75.2882 F150.00
G2 X77.4540 Y220.2186 Z-21.0000 I-8.6462 J-77.5282 F150.00
G2 X141.2584 Y185.8607 Z-21.0000 I-77.4267 J-220.2088 F150.00
G0 X141.2584 Y185.8607 Z6.0000
(finish operation: BodyJob)
(begin operation: HookJob)
(Path: HookJob)
(Contour)
(Compensated Tool Path. Diameter: 6.35)
G0 Z6.0000
G0 X-91.9289 Y271.5338
G0 Z4.0000
G1 X-91.9289 Y271.5338 Z-5.3500 F100.00
G2 X-89.1923 Y268.3892 Z-5.3500 I-0.4383 J-3.1446 F100.00
G1 X-89.1923 Y230.2892 Z-5.3500 F100.00
G2 X-92.3673 Y227.1142 Z-5.3500 I-3.1750 J0.0000 F100.00
G1 X-108.2423 Y227.1142 Z-5.3500 F100.00
G1 X-108.2423 Y225.2446 Z-5.3500 F100.00
G2 X-111.4173 Y222.0696 Z-5.3500 I-3.1750 J0.0000 F100.00
G1 X-116.4382 Y222.0696 Z-5.3500 F100.00
G2 X-119.6132 Y225.2446 Z-5.3500 I0.0000 J3.1750 F100.00
G1 X-119.6132 Y248.1647 Z-5.3500 F100.00
G3 X-125.1905 Y252.9295 Z-5.3500 I-5.9412 J-1.3078 F100.00
G1 X-142.5501 Y252.9295 Z-5.3500 F100.00
G2 X-158.1138 Y264.7125 Z-5.3500 I-0.5992 J15.3787 F100.00
G2 X-158.2259 Y265.5487 Z-5.3500 I3.0629 J0.8362 F100.00
G1 X-158.2259 Y273.6008 Z-5.3500 F100.00
G2 X-123.2324 Y274.6583 Z-5.3500 I17.5110 J0.0555 F100.00
G3 X-123.1835 Y273.2334 Z-5.3500 I15.5998 J-0.1780 F100.00
G3 X-119.5546 Y273.6387 Z-5.3500 I1.8065 J0.2734 F100.00
G2 X-116.3924 Y276.5295 Z-5.3500 I3.1623 J-0.2842 F100.00
G1 X-111.4173 Y276.5295 Z-5.3500 F100.00
G2 X-108.2423 Y273.3545 Z-5.3500 I-0.0000 J-3.1750 F100.00
G1 X-108.2423 Y271.5642 Z-5.3500 F100.00
G1 X-92.3673 Y271.5642 Z-5.3500 F100.00
G2 X-91.9289 Y271.5338 Z-5.3500 I-0.0000 J-3.1750 F100.00
G1 X-91.9289 Y271.5338 Z-11.7000 F100.00
G2 X-89.1923 Y268.3892 Z-11.7000 I-0.4383 J-3.1446 F100.00
G1 X-89.1923 Y230.2892 Z-11.7000 F100.00
G2 X-92.3673 Y227.1142 Z-11.7000 I-3.1750 J0.0000 F100.00
G1 X-108.2423 Y227.1142 Z-11.7000 F100.00
G1 X-108.2423 Y225.2446 Z-11.7000 F100.00
G2 X-111.4173 Y222.0696 Z-11.7000 I-3.1750 J0.0000 F100.00
G1 X-116.4382 Y222.0696 Z-11.7000 F100.00
G2 X-119.6132 Y225.2446 Z-11.7000 I0.0000 J3.1750 F100.00
G1 X-119.6132 Y248.1647 Z-11.7000 F100.00
G3 X-125.1905 Y252.9295 Z-11.7000 I-5.9412 J-1.3078 F100.00
G1 X-142.5501 Y252.9295 Z-11.7000 F100.00
G2 X-158.1138 Y264.7125 Z-11.7000 I-0.5992 J15.3787 F100.00
G2 X-158.2259 Y265.5487 Z-11.7000 I3.0629 J0.8362 F100.00
G1 X-158.2259 Y273.6008 Z-11.7000 F100.00
G2 X-123.2324 Y274.6583 Z-11.7000 I17.5110 J0.0555 F100.00
G3 X-123.1835 Y273.2334 Z-11.7000 I15.5998 J-0.1780 F100.00
G3 X-119.5546 Y273.6387 Z-11.7000 I1.8065 J0.2734 F100.00
G2 X-116.3924 Y276.5295 Z-11.7000 I3.1623 J-0.2842 F100.00
G1 X-111.4173 Y276.5295 Z-11.7000 F100.00
G2 X-108.2423 Y273.3545 Z-11.7000 I-0.0000 J-3.1750 F100.00
G1 X-108.2423 Y271.5642 Z-11.7000 F100.00
G1 X-92.3673 Y271.5642 Z-11.7000 F100.00
G2 X-91.9289 Y271.5338 Z-11.7000 I-0.0000 J-3.1750 F100.00
G1 X-91.9289 Y271.5338 Z-18.0500 F100.00
G2 X-89.1923 Y268.3892 Z-18.0500 I-0.4383 J-3.1446 F100.00
G1 X-89.1923 Y230.2892 Z-18.0500 F100.00
G2 X-92.3673 Y227.1142 Z-18.0500 I-3.1750 J0.0000 F100.00
G1 X-108.2423 Y227.1142 Z-18.0500 F100.00
G1 X-108.2423 Y225.2446 Z-18.0500 F100.00
G2 X-111.4173 Y222.0696 Z-18.0500 I-3.1750 J0.0000 F100.00
G1 X-116.4382 Y222.0696 Z-18.0500 F100.00
G2 X-119.6132 Y225.2446 Z-18.0500 I0.0000 J3.1750 F100.00
G1 X-119.6132 Y248.1647 Z-18.0500 F100.00
G3 X-125.1905 Y252.9295 Z-18.0500 I-5.9412 J-1.3078 F100.00
G1 X-142.5501 Y252.9295 Z-18.0500 F100.00
G2 X-158.1138 Y264.7125 Z-18.0500 I-0.5992 J15.3787 F100.00
G2 X-158.2259 Y265.5487 Z-18.0500 I3.0629 J0.8362 F100.00
G1 X-158.2259 Y273.6008 Z-18.0500 F100.00
G2 X-123.2324 Y274.6583 Z-18.0500 I17.5110 J0.0555 F100.00
G3 X-123.1835 Y273.2334 Z-18.0500 I15.5998 J-0.1780 F100.00
G3 X-119.5546 Y273.6387 Z-18.0500 I1.8065 J0.2734 F100.00
G2 X-116.3924 Y276.5295 Z-18.0500 I3.1623 J-0.2842 F100.00
G1 X-111.4173 Y276.5295 Z-18.0500 F100.00
G2 X-108.2423 Y273.3545 Z-18.0500 I-0.0000 J-3.1750 F100.00
G1 X-108.2423 Y271.5642 Z-18.0500 F100.00
G1 X-92.3673 Y271.5642 Z-18.0500 F100.00
G2 X-91.9289 Y271.5338 Z-18.0500 I-0.0000 J-3.1750 F100.00
G1 X-91.9289 Y271.5338 Z-21.0000 F100.00
G2 X-89.1923 Y268.3892 Z-21.0000 I-0.4383 J-3.1446 F100.00
G1 X-89.1923 Y230.2892 Z-21.0000 F100.00
G2 X-92.3673 Y227.1142 Z-21.0000 I-3.1750 J0.0000 F100.00
G1 X-108.2423 Y227.1142 Z-21.0000 F100.00
G1 X-108.2423 Y225.2446 Z-21.0000 F100.00
G2 X-111.4173 Y222.0696 Z-21.0000 I-3.1750 J0.0000 F100.00
G1 X-116.4382 Y222.0696 Z-21.0000 F100.00
G2 X-119.6132 Y225.2446 Z-21.0000 I0.0000 J3.1750 F100.00
G1 X-119.6132 Y248.1647 Z-21.0000 F100.00
G3 X-125.1905 Y252.9295 Z-21.0000 I-5.9412 J-1.3078 F100.00
G1 X-142.5501 Y252.9295 Z-21.0000 F100.00
G2 X-158.1138 Y264.7125 Z-21.0000 I-0.5992 J15.3787 F100.00
G2 X-158.2259 Y265.5487 Z-21.0000 I3.0629 J0.8362 F100.00
G1 X-158.2259 Y273.6008 Z-21.0000 F100.00
G2 X-123.2324 Y274.6583 Z-21.0000 I17.5110 J0.0555 F100.00
G3 X-123.1835 Y273.2334 Z-21.0000 I15.5998 J-0.1780 F100.00
G3 X-119.5546 Y273.6387 Z-21.0000 I1.8065 J0.2734 F100.00
G2 X-116.3924 Y276.5295 Z-21.0000 I3.1623 J-0.2842 F100.00
G1 X-111.4173 Y276.5295 Z-21.0000 F100.00
G2 X-108.2423 Y273.3545 Z-21.0000 I-0.0000 J-3.1750 F100.00
G1 X-108.2423 Y271.5642 Z-21.0000 F100.00
G1 X-92.3673 Y271.5642 Z-21.0000 F100.00
G2 X-91.9289 Y271.5338 Z-21.0000 I-0.0000 J-3.1750 F100.00
G0 Z6.0000
(finish operation: HookJob)
(begin postamble)
M5
G90
; M30
